X:1
T:Hungarian Rhapsody No. 2
T:Franz Liszt   (1811 - 1886)
%%score { ( 1 2 5 6 ) | ( 3 4 7 ) }
L:1/8
Q:1/4=108
M:2/4
K:E
V:1 treble nm="Piano"
V:2 treble 
V:5 treble 
V:6 treble 
V:3 bass 
V:4 bass 
V:7 bass 
V:1
"^Lento a capriccio"!f!{/C} !^!C4[Q:1/4=150] |[Q:1/4=180] (3:6:4x/[Q:1/4=80] C/[Q:1/4=160]B,/C/ | %2
[Q:1/4=48][Q:1/4=48] !^!B,4[Q:1/4=20][Q:1/4=48] |[Q:1/4=48]"^Lento a capriccio" !^!C4[Q:1/4=150] | %4
 (3:6:4z/ C/B,/C/ |!mf![Q:1/4=48] !^!B,4[Q:1/4=20][Q:1/4=48] | %6
[K:bass][Q:1/4=48]"^Lento a capriccio" !^!G,4 |{/G,} (!^!G,4[Q:1/4=20][Q:1/4=48] | %8
[Q:1/4=40] G,4-) |[Q:1/4=40]"_più riten." G,2[Q:1/4=20]"^Lento" z2 || %10
[M:2/4]"_l'accompagnamento pesante"[Q:1/4=140]"^Andante Mesto""^Lassan""_." z4 | %11
"_." z2 z3/2"^molto expressivo"!mf! G,/4G,/4 |"_." z z !>!C2- | %13
"_."!<(! (C/^B,/C/!<)!D/!>(! E/A,/E/!>)!D/) |"_." C2{/CD} C>^B, |"_." (C7/2 D/) |"_." .E z !>!E2- | %17
[K:treble]"_."!<(! (E/D/!<)!E/F/!>(! G/D/G/F/)!>)! |"_." E2{/EF} E>D | E2!>(! [F,G,^B,G]2!>)! | %20
"_." x z !>![Cc]2- |!f!"_."!<(! ([Cc]/[^B,^B]/[Cc]/[Dd]/!<)!!>(! [Ee]/A/!f![Ee]/!>)![Dd]/) | %22
!f!"_." [Cc] z"_cresc."{/cd} [Cc]>[^B,^B] | [Cc]7/2 [EGBe]/ | .[GBg] z !>!G2 | %25
[Q:1/4=40]"^Grave"{G^^FG} (15:4:15F/E/F/G/^A/B/c/d/e/^^f/g/^a/b/c'/d'/(16:2:16!>!e'/d'/c'/b/a/g/[Q:1/4=40]"^Lento"f/!>!b/=a/g/f/=e/d/c/!>!e/d/ | %26
(4:1:4c/B/^A/G/[Q:1/4=100]"^Grave"!<(!(17:7:11^^FGFE!<)! FBB/B/B/B/B/[Q:1/4=35]"^Lento"[Q:1/4=25]"^Lento"[Q:1/4=29]"^Lento"[Q:1/4=20]"^Lento" | %27
(3:8:3B/!fermata!B3/4A/4 |[Q:1/4=80]"_Andante Mesto" G2!>(!{G^A} G>^^F | %29
 G2!>)![Q:1/4=40]"_Andante Mesto" !fermata![B,D] z[Q:1/4=80] | x z !arpeggio!!^![eg]2- | %31
 ([eg]/[df]/[eg]/[fa]/[gb]/[Be]/[fa]/[eg]/) | .[df] z x z/ x/ | .[df] z !>![Gdg]2 | %34
 x z !arpeggio!!^![ce]2- |!<(! (([ce]/[^Bd]/[ce]/!<)![df]/{[ce][df])} ([eg]/z/4[Gc]/4[df]/[ce]/ | %36
 .[^Bd])) z x"^." z/ x/ | [^Bd]2 z2 | %38
[Q:1/4=120]"^capriccioso"!p!"_dolciss."{/ddg-} !tenuto!g2{^Bg-} !tenuto!g2 | %39
{dg-} !tenuto!g2{eg-} !tenuto!g2 |{cg-} g2{cg-} g2 |{eg-} g2{fg-} g2 | %42
{dg-} g{Gg-} g{^Bg-} g{cg-} g |{dg-} g{fg-} g{eg-} g{dg-} g | !trill(!Tg4 | g4 | %46
!p!!8va(! (5:4:5.g/4.d'/4.g'/4.d'/4.g/4 g/4g/4g'/4g/4!<(! ^b/4g'/4b/4g/4 c'/4g'/4c'/4g/4!<)! | %47
!<(! d'/4g'/4d'/4g/4 f'/4g'/4f'/4g/4 e'/4g'/4e'/4g/4 d'/4g'/4d'/4g/4!<)! | %48
!mp! (5:4:5.g/4.c'/4.g'/4.c'/4.g/4 .g/4g/4g'/4g/4 c'/4g'/4c'/4g/4 d'/4g'/4d'/4g/4 | %49
 e'/4g'/4e'/4g/4 g'/4g/4g'/4g/4 f'/4g'/4f'/4g/4 e'/4g'/4e'/4g/4 | %50
 (5:4:5d'/4g'/4a'/4g'/4d'/4 (5:4:5g/4g'/4a'/4g'/4g/4 (5:4:5^b/4g'/4a'/4g'/4g/4 (5:4:5c'/4g'/4a'/4g'/4g/4 | %51
 (5:4:5d'/4g'/4a'/4g'/4g/4 (5:4:5f'/4g'/4a'/4g'/4g/4 (5:4:5e'/4g'/4a'/4g'/4g/4 (5:4:5d'/4g'/4a'/4g'/4g/4 | %52
"^." !trill(!Tg'4- | g'3 x | %54
[Q:1/4=80]"_sempre giocando"!p! .d'/z/4(e'/4.f'/)z/4(g'/4 .a'/)z/4(g'/4.b'/)z/4(a'/4!8va)! | %55
 .g){/G} .[Gg]{/^A}.[Ag]{/^B}.[Bg] |({cd)} .c/z/4^B/4.c/z/4(d/4{e)f} .e/z/4d/4.e/z/4(f/4 | %57
 .^^f/)z/4(g/4.a/)z/4(g/4 .f/)z/4(e/4d/)z/4c/4 | %58
 d'/z/4!8va(!(e'/4.f'/)z/4(g'/4 .a'/)z/4(g'/4.b'/)z/4a'/4 | g'!8va)!{/G} .g{/^A}.[g^a]{/^B}.[g^b] | %60
{cgd'} !trill(!Tc'4 | c'4 |!mp!!<(! !///-![^ec']2 d'2!<)! | %63
!>(! !///-![^ec'] d'!>)!!<(! !///-![ec'] d'!<)! | %64
[Q:1/4=30]"^Grave" (59:16:59[^ec']/4^b/4d'/4c'/4^e'/4d'/4c'/4g/4e/4d/4c/4G/4^E/4G/4c/4d/4e/4g/4c'/4d'/4!8va(!e'/4g'/4c''/4g'/4d''/4c''/4^e''/4d''/4c''/4g'/4e'/4c''/4g'/4e'/4d'/4c'/4e'/4d'/4c'/4g/4e/4!8va)!!mp!c'/4g/4e/4d/4c/4e/4d/4c/4G/4E/4c/4G/4E/4D/4C/4E/4D/4C/4 | %65
[Q:1/4=48]"^come prima"!mf!!mf! !^!C4[Q:1/4=130] | (3:6:4x/ C/[Q:1/4=160]B,/C/ | %67
[Q:1/4=48] !^!B,4[Q:1/4=20][Q:1/4=48] | !^!C4[Q:1/4=130] | (3:6:4x/[Q:1/4=290] C/B,/C/ | %70
[Q:1/4=48] !^!B,4[Q:1/4=20][Q:1/4=48] |[K:bass] !^!G,4 | %72
{/G,} !^!G,4[Q:1/4=20][Q:1/4=20][Q:1/4=48] | G,4- | G,2 x2[Q:1/4=24] | z4[Q:1/4=35]"_riten." | %76
[Q:1/4=48]"_espressivo assai" z2"^ten." [E,G,CE]2 | z2"^ten." [A,CFA]2 | x2 | %79
[Q:1/4=550] (6:12:1z2 |[Q:1/4=46]"^ten." [E,G,CE]2 | z2"^ten." [E,G,CE]2 |[K:treble] z2 [G,B,EG]2 | %83
 z2 !tenuto![A,B,DB]2 | z2 |[Q:1/4=450] x2 |[Q:1/4=46] !tenuto![G,B,EG]2 | z2 [F,G,^B,G]2 | %88
 z2 [EGc-]2 |!<(! [FAc]2!<)! x2 | x2[Q:1/4=450] | (2:8:2C/D/ |[Q:1/4=46] [EGc] x | %93
 .C z (!>![E^^Fce]2 | .[Gcg]) z z2 | %95
!f![Q:1/4=20]"^Allegro" (3:1:1!arpeggio!!>![F^Bda] z/12 (3:1:2x3/4 x/ x/4 x/4 x/4 x/ x2"_accel."[Q:1/4=48]"^Lento" | %96
[Q:1/4=20]"^Allegro"[I:staff +1] (40:8:72g/4[I:staff -1]a/4[I:staff +1]g/4[I:staff -1]a/4[I:staff +1]g/4[I:staff -1]a/4[I:staff +1]g/4[I:staff -1]a/4[I:staff +1]g/4[I:staff -1]a/4[I:staff +1]g/4[I:staff -1]a/4[I:staff +1]g/4[I:staff -1]a/4[I:staff +1]g/4[I:staff -1]a/4[I:staff +1] g/4[I:staff -1]a/4[I:staff +1]g/4[I:staff -1]a/4[I:staff +1]g/4[I:staff -1]a/4[I:staff +1]g/4[I:staff -1]a/4[I:staff +1]g/4[I:staff -1]a/4[I:staff +1]g/4[I:staff -1]a/4[I:staff +1]g/4[I:staff -1]a/4[I:staff +1]g/4[I:staff -1]a/4[I:staff +1] g/4[I:staff -1]a/4[I:staff +1]g/4[I:staff -1]a/4[I:staff +1]g/4[I:staff -1]a/4[I:staff +1]g/4[I:staff -1]a/4[I:staff +1]g/4[I:staff -1]a/4[I:staff +1]g/4[I:staff -1]a/4[I:staff +1]g/4[I:staff -1]a/4[I:staff +1]g/4[I:staff -1]a/4[I:staff +1] g/4[I:staff -1]a/4[I:staff +1]g/4[I:staff -1]a/4[I:staff +1]g/4[I:staff -1]a/4[I:staff +1]g/4[I:staff -1]a/4[I:staff +1]g/4[I:staff -1]a/4[I:staff +1]g/4[I:staff -1]a/4[I:staff +1]g/4[I:staff -1]a/4[I:staff +1]g/4[I:staff -1]a/4 (.a/.g/.^^f/.g/.a/.^a/.b/.^b/) | %97
!p![Q:1/4=80]"_Andante Mesto""_dolce" (.c' z) (!arpeggio!!>![ea-c'-]2 | %98
 [ac']/[g^b]/[ac']/[=bd']/ [c'e']/[ea]/[bd']/[ac']/ | .[gb]) z ([gb]>[^^f^a] | %100
 [gb]) z (!>![c-gc']2 | [cfa]) z [cfa]2- | %102
!<(! ([cfa]/[^eg]/[fa]/!<)![gb]/!>(! [ac']/[cf]/[gb]/[fa]/!>)! | .[=eg]) z ([eg]>[d^^f] | %104
 [eg]3) z | z2!>(! [=df]>[c^e]!>)! | [=df] z z2 | z2!sfz! [F=d]>[^Ec] |!>(! [F=d]7/2 [=Ec]/!>)! | %109
[Q:1/4=40]"_più piano"[Q:1/4=80] .[Ec] z [EAc]2- | ([EAc]/[G^B]/[Ac]/[=Bd]/ [ce]/[EA]/[Bd]/[Ac]/ | %111
 .[GB]) z ([GB]>[^^F^A]) | .[GB] z !>![C-Gc]2 | [CFA] z [CFA]2- | %114
"^dimin." ([CFA]/[^EG]/[FA]/[GB]/{[FA][GB]} [Ac]/[CF]/[GB]/[FA]/ | [=EG]) z [EG]>[D^^F] | [EG]3 z | %117
[Q:1/4=75]"_rit." z2 [=DF]>[^C^E] | [=DF] z z2 | z2[K:bass] (!>![F,A,]>[^E,G,]) | %120
!>(! [F,A,]4-!>)! | [F,A,]2 [^B,,=D,F,G,]2 | %122
[Q:1/4=48]"_un poco marc. rallent." z2 !tenuto![C,^E,G,]2 |[Q:1/4=140] x4 | %124
[Q:1/4=48] z2 !tenuto![=D,F,G,]2[Q:1/4=20]"^Lento"[Q:1/4=48]"^Lento a capriccio" | %125
 z2 !tenuto![C,^E,G,]2 |[Q:1/4=135] x4 | %127
[Q:1/4=48] z2 !tenuto![=D,F,G,]2[Q:1/4=20]"^Lento"[Q:1/4=48]"^Lento a capriccio" | %128
 z2"_morendo"!mf!!<(! !tenuto![C,^E,G,]2!<)! | z2 !tenuto![^B,,^D,F,G,]2 | [G,,C,^E,G,]4- | %131
!>(! !fermata![G,,C,E,G,]2"^Lunga\npausa" !fermata!z2!>)! |] %132
[K:treble][Q:1/4=144]"^Friska\nVivace"[Q:1/4=144]!mf!"_pp""_una corda"{cgc'-} !tenuto!c'4 | %133
{cgc'-} !tenuto!c'4 |{cfc'-} !tenuto!c'4 |{cac'-} !tenuto!c'4 |{cgc'-} !tenuto!c'4 | %137
{cgc'-} !tenuto!c'4 |{cfc'-} !tenuto!c'4 |{cfc'-} !tenuto!c'4 |"_pp"{cgc'-} !tenuto!c'4 | %141
{cgc'-} !tenuto!c'4 |{cfc'-} !tenuto!c'4 |{cac'-} !tenuto!c'4 |{cgc'-} !tenuto!c'4 | %145
{cgc'-} !tenuto!c'4 |{cfc'-} !tenuto!c'4 |{cac'-} !tenuto!c'4 | %148
{gc'} (!tenuto!g>c)!pp!!mf!!tenuto!c'>c |{gc'} !tenuto!g>c!tenuto!c'>c | %150
{fc'} !tenuto!f>c!tenuto!c'>c |{ac'} !tenuto!a>c!tenuto!c'>c |{gc'} !tenuto!g>c!tenuto!c'>c | %153
{gc'} !tenuto!g>c!tenuto!c'>c |{fc'} !tenuto!f>c!tenuto!c'>c |{ac'} !tenuto!a>c!tenuto!c'>c | %156
[Q:1/4=120]"^non tanto presto," z/ c/c/c/c/c/c/c/ |"^capricciosamente" z/ c/c/c/ z/ c/c/c/ | %158
 z/ c/c/c/c/c/c/ z/ | z/ c/c/c/ z/ c/c/c/ | z/ c/c/c/c/c/c/ x/ | z/ c/c/c/ z/ c/c/c/ | %162
 z/ c/c/c/c/c/c/ x/ | z/ c/c/c/ z/ c/c/c/ | z/ c/c/c/c/c/c/c/ | z/ c/c/c/ z/ c/c/c/ | %166
 z/ c/c/c/!tenuto!c/c/c/ x/ | !tenuto![Aa]2 !tenuto![Ff]2 | [Gg]2 x [Bb] | z/ c/c/c/ z/ c/c/c/ | %170
 z/ c/c/c/!tenuto!c/c/c/ x/ | [Aa]2 [Ff]2 | %172
[Q:1/4=121]"^poco a poco accelerando e crescendo"!mf! c'/c/c/c/ c'/!mf!c/c/c/ | %173
[Q:1/4=122]"^accel." c'/c/c/c/ c'/c/c/c/ |[Q:1/4=123]"^accel." c'/c/c/c/ c'/c/c/c/ | %175
[Q:1/4=124]"^accel.""^HERE@#@#@#" c'/c/c/c/ c'/c/c/c/ |[Q:1/4=125]"^accel." c'/c/c/c/ c'/c/c/c/ | %177
[Q:1/4=126]"^accel." c'/c/c/c/ c'/c/c/c/ |[Q:1/4=127]"^accel." c'/c/c/c/ c'/c/c/c/ | %179
[Q:1/4=128]"^accel." c'/c/c/c/ c'/c/c/c/ |[Q:1/4=129]"^accel."!f! c'/c/c'/c'/.c''/.c'/.c'/.c/ | %181
[Q:1/4=130]"^accel." c'/c/c/c/ c'/c/c/c/ |[Q:1/4=131]"^accel." c'/c/c'/c'/.c''/c'/c'/c/ | %183
[Q:1/4=132]"^accel." c'/c/c/c/ c'/c/c/c/ |[Q:1/4=133]"^accel." c'/c/c'/c'/.c''/c'/c'/c/ | %185
[Q:1/4=134]"^accel." c'/c/c/c/ c'/c/c/c/ |[Q:1/4=135]"^accel." c'/c/c'/c'/.c''/c'/c'/c/ | %187
[Q:1/4=136]"_accel." c'/c/c/c/ c'/c/c/c/ |[Q:1/4=137]"^crescendo molto" c'/c/c'/c'/.c''/c'/c'/c/ | %189
[Q:1/4=138]"_accel." c'/c/c'/c'/.c''/c'/c'/c/ |[Q:1/4=139]"_accel." c'/c/c'/c'/.c''/c'/c'/c/ | %191
[Q:1/4=139]"_accel." c'/c/c'/c'/.c''/c'/c'/c/ || %192
[K:F#][M:2/4][Q:1/4=144]"^Tempo giusto - Vivace"!f!"_staccato, forte ma leggiero" .[^Be^b].[cgc']!>![=Be=b]>[cc'] | %193
 .[^Be^b].[cgc']!>![=Be=b]>[cc'] | .[^B^^g^b].[cac']!>![Afa]>[cc'] | %195
 .[^B^^g^b].[cac']!>![Afa]>[cc'] | .[^B^b].[cgc'].[d=bd']>[cgc'] | %197
 .[^B^b].[c^gc']!>![d=bd']>[cgc'] | .[^B^^g^b].[cac']!>![faf']>[cc'] | %199
 .[^B^^g^b].[cac']!>![faf']>[cc'] |"_simile" .[^Be^b].[cc']!>![=Be=b]>[cc'] | %201
 .[^Be^b].[cc']!>![=Be=b]>[cc'] | .[^B^^g^b].[cac']!>![Afa]>[cac'] | .[^B^^g^b].[cac'][Afa]>[cc'] | %204
!p!!ff! .[^B^b].[cgc']!>![d=bd']>[cgc'] |!pp!!ff! .[^B^b].[cgc']!>![d=bd']>[cgc'] | %206
 .[^B^^g^b].[cac']!>![faf']>[cc'] |!pp!!p! .[^B^^g^b].[cac']!>![faf']>[cc'] | %208
 .[dbd'].[fb].[df].[Bd] | .[df].[fb].[bd'].[d'f'] | .[cac'].[fa].[cf].[Ac] | %211
 .[cf].[fa] !tenuto![cfac']2 |!p! !arpeggio!.[dfbd'].[fb].[df].[Bd] | .[df].[fb].[bd'].[d'f'] | %214
 .[ac'].[fa].[cf].[Ac] | .[cf].[fa] !tenuto![cfac']2 | %216
[Q:1/4=160]"^Più mosso"!p!!mf!!8va(! .^b .c' =bc' | .^b .c' =bc' | .^b .c' ac' | .^b .c' ac' | %220
 .^b .c' !>!e'c' | .^b .c' !>!e'c' | .a .c' !>!f'c' | .a .c' !>!f'c' | %224
!mf!"^leggieriss.""_stacc." .d'/c''/.b/c''/.a/c''/.b/c''/ | .d'/c''/.b/c''/.f'/c''/.d'/c''/ | %226
 .c'/c''/.a/c''/.^^g/c''/.a/c''/ | .c'/c''/.a/c''/.f'/c''/.c'/c''/ | d'/c''/b/c''/a/c''/b/c''/ | %229
 d'/c''/b/c''/f'/c''/d'/c''/ | c'/c''/a/c''/^^g/c''/a/c''/ | c'/c''/a/c''/f'/c''/c'/c''/ | %232
!p!!mp!!mp! [be']/c''/[c'g']/c''/ [be']/c''/[c'g']/!mp!!mp!c''/ | %233
 [be']/c''/[c'g']/c''/ [be']/c''/[c'g']/c''/ | [af']/c''/[c'a']/c''/ [af']/c''/[c'a']/c''/ | %235
 [af']/c''/[c'a']/c''/ [af']/c''/[c'a']/c''/ | [be']/c''/[c'g']/c''/ [be']/c''/[c'g']/c''/ | %237
 [be']/c''/[c'g']/c''/ [be']/c''/[c'g']/c''/ | [af']/c''/[c'a']/c''/ [af']/c''/[c'a']/c''/ | %239
 [af']/c''/[c'a']/c''/ [af']/c''/[c'a']/c''/ | [be']/c''/[c'g']/c''/ [be']/c''/[c'g']/c''/ | %241
!p!!<(! [be']/c''/[c'g']/c''/!<)! !>![ec'e']2 | [af']/c''/[c'a']/c''/ [af']/c''/[c'a']/c''/ | %243
!p!!p!!<(! [af']/c''/[c'a']/c''/!<)! !>![fc'f']2 | [be']/c''/[c'g']/c''/ [be']/c''/[c'g']/c''/ | %245
!p!!p!!<(! [be']/c''/[c'g']/c''/!<)! !>![ec'e']2 | [af']/c''/[c'a']/c''/ [af']/c''/[c'a']/c''/ | %247
!p!!p!!p!!<(! [af']/c''/[c'a']/c''/!<)! !>![fc'f']2 |"^stacc."{/b} .d''!8va)! z !>!g2- | .g.a.b.g | %250
{/a} .c'' z !>!f2- | .f.g.a.f | .e.f.g.a | .b.c'.d'.e' |!8va(!{f'g'} .f'.e'.f'.g' | .a'.g'.a'.f' | %256
{be'g'} .d''!8va)! z !>![eg]2- | [eg].[fa].[gb].[eg] |{ac'f'} .c'' z !>![Af]2- | %259
 [Af].[Bg].[ca].[Af] | .[Ge].[Af].[Bg].[ca] | .[db].[ec'].[fd'].[ge'] | %262
!8va(! .[af'].[ge'].[af'].[bg'] | .[c'a'].[bg'].[c'a'].[af'] | %264
"_stacc. sempre"{d'a'} .f''!8va)! z !>![Fd]2- | [Fd].[Ge].[Af].[Fd] | %266
!8va(!({c'g')} .e''!8va)! z !>![Ec]2- | [Ec].[Fd].[Ge].[Ec] |!<(! .[D^B].[Ec].[Fd].[Ge] | %269
 .[Af].[^Bg].[ca].[d^b] | .[ec']!<)!.[d^b].[ec'].[fd'] | .[ge'].[fd'].[ge'].[ec'] | %272
!8va(!({d'a')} .f''!8va)! z !>![Fd]2- | [Fd].[Ge].[Af].[Fd] | %274
!8va(!({c'g')} .e'' z!8va)! !>![Ec]2- | [Ec].[Fd].[Ge].[Ec] | .[D^B].[Ec].[Fd].[Ge] | %277
[Q:1/4=160]"^stringendo con strepito" .[Af].[^Bg].[ca].[d^b] |!f! !>![cec'][^B^b][=d=d'][cc'] | %279
"^con strepito"!<(! [^d^d'][=d=d'][=e=e'][^d^d']!<)! |[^e^e'][=e=e'][ff'][^e^e'] | %281
!f!!8va(![=g=g'][ff'][^g^g'][=g=g'] |"_cresc." [=a=a'][^g^g'][^a^a'][=a=a'] | %283
[bb'][aa'][bb'][^b^b'] | [c'c''][^b^b']!<(!!>![c'e'c''][bf'b']!<)! | %285
!>![c'e'c''][^bf'^b']!>![c'e'c''][bf'b'] | %286
!ff!!<(! !wedge![c'e'c'']!8va)! !wedge![^B^b]!wedge![cc']!<)!!ff!!wedge![Bb] | %287
!<(! !wedge![cc'] !wedge![^B,^B]!wedge![Cc]!<)!!wedge![B,B] | %288
[Q:1/4=160]"^a tempo" !^![Cc]2 !^![Ee]2 | !^![Aa]3 [Gg] | .[FAcf].[Ee].[=E=e]!arpeggio!.[DFAd] | %291
 .[=D=d].[CFAc].[^B,^B]!arpeggio!.[CFAc] | !^![Cc]2 !^![Ee]2 | !^![Aa]3 [Gg] | %294
 .[FAcf].[Ee].[Dd].[CFAc] | !>![FAcf]2 !>![Acfa]2 | %296
!8va(! [be']/c''/[c'g']/c''/ [^be']/c''/[c'g']/c''/ | %297
 [be']/c''/[c'g']/c''/ [^be']/c''/[c'g']/c''/ |!<(! [af']/c''/[c'a']/c''/ [^bf']/c''/[c'a']/c''/ | %299
 [af']/c''/[c'a']/c''/ [^bf']/c''/[c'a']/c''/!<)! | [=be']/c''/[c'g']/c''/ [^be']/c''/[c'g']/c''/ | %301
 [=be']/c''/[c'g']/c''/ [^be']/c''/[c'g']/c''/ |!<(! [af']/c''/[c'a']/c''/ [^bf']/c''/[c'a']/c''/ | %303
 [af']/c''/[c'a']/c''/ [af']/c''/!<)![c'a']/c''/ | %304
!mf! [be']/c''/[c'g']/c''/ [be']/c''/[c'g']/c''/ | [be']/c''/[c'g']/c''/ !>![ec'e']2 | %306
 [af']/c''/[c'a']/c''/ [af']/c''/[c'a']/c''/ |"_marc." [af']/c''/[c'a']/c''/ !>![fc'f']2 | %308
 [be']/c''/[c'g']/c''/ [be']/c''/[c'g']/c''/ | [be']/c''/[c'g']/c''/ !>![ec'e']2 | %310
 [af']/c''/[c'a']/c''/ [af']/c''/[c'a']/c''/ | [af']/c''/[c'a']/c''/ !>![fc'f']2 | %312
"_accel.""_stacc." .d'/c''/.b/c''/ .a/c''/.b/c''/ | .d'/c''/.b/c''/ .f'/c''/.d'/c''/ | %314
 c'/c''/a/c''/ ^^g/c''/a/c''/ | c'/c''/a/c''/ f'/c''/c'/c''/ | %316
!pp!!p!!p! d'/c''/b/c''/ a/c''/b/c''/ | d'/c''/b/c''/ f'/c''/d'/c''/ | %318
 c'/c''/a/c''/ ^^g/c''/a/c''/ | c'/c''/a/c''/ f'/c''/!8va)! z | %320
[K:bass]"_senza pedal"!p!"^sotto""_sopra""_staccato e leggriero sempre"!mf! .C,.D,.E,.F, | %321
{/A,} .G,.^^F,.G,.E, | .F,.G,.A,.B, |{/D} .C.^B,.C.A, | .=B,{/^^C}.D .G,{/A,}.B, | %325
 .E,{/^^F,}.G, .C,{/^^D,}.E, | .F,{/^^G,}.A, .C,{/E,}.F, | .A,,{/^B,,}.C, .F,, z | %328
[K:treble]"_leggiero" .[Cc].[Dd].[Ee].[Ff] |{/a} .[Gg].[^^F^^f].[Gg].[Ee] | .[Ff].[Gg].[Aa].[Bb] | %331
{/d'} .[cc'].[^B^b].[cc'].[Aa] | .b{/^^c'}.d' .g{/a}.b | .e{/^^f}.g .c{/^^d}.e | %334
 .f{/^^g}.a .c{/e}.f | .A{/^B}.c !tenuto![A,F]2 | %336
[K:bass]"^sotto""_sopra""_stacc. e legg."!mp! .G,,.A,,.^B,,.C, |{/E,} .D,.^^C,.D,.^B,, | %338
 .C,.D,.E,.F, |{/A,} .G,.^^F,.G,.E, | .F,{/^^G,}.A, .D,{/^E,}.F, | %341
 .^B,,{/^^C,}.D, .G,,{/=B,,}.^B,, | .C,{/^^D,}.E,.G,,{/^B,,}.C, | .E,,{/^^F,,}.G,, .C,,2 | %344
[K:treble]!p!!mf! .[G^Bg].[Aca].[Bd^b].[cec'] | .[dfd'].[^^ce^^c'].[dfd'].[^Bd^b] | %346
 .[cec'].[dgd'].[ec'e'].[fd'f'] | .[ge'g'].[^^f^^d'^^f'].[ge'g'].[ec'e'] | %348
!8va(! .f'{/^^g'}.a' .d'{/e'}.f'!8va)! | .^b{/^^c'}.d' .g{/^^a}.b | .c'{/^^d'}.e' .g{/^b}.c' | %351
 .e{/^^f}.g !tenuto!c2 |!mf!!<(!!8va(! .[g^bg'].[ac'a'].[bd'^b'].[c'e'c''] | %353
 .[d'f'd''].[^^c'e'^^c''].[d'f'd'']!<)!.[^bd'^b'] |!<(! [c'e'c''][d'g'd''][e'c''e''][f'd''f''] | %355
 [g'e''g''][^^f'^^d''^^f''][g'e''g'']!<)![e'c''e''] |{/^^g'} .a'.f'{/e'} .f'.d' | %357
{/^^c'} .d'.^b{/=b} .^b.g!8va)! | %358
[Q:1/4=165]"^stringendo"!f!!<(! [c^ec'][=df=d'][^d^^f^d']!<)![=eg=e'] | %359
!>(![=f=a=f'][=eg=e'][^d^^f^d']!>)![=d^f=d'] |!<(! [^d^^f^d'][=eg=e'][^e^^g^e'][^f^af'] | %361
!>(! [=gb=g'][faf'][^eg^e']!<)![=e^g=e']!>)! |!<(! [^e^^g^e'][faf'][=gb=g']!<)![^g^b^g'] | %363
!8va(!!>(! [=ac'=a'][g^bg'][=g=b=g']!>)![f^af'] |!<(! [=gb=g'][^g^b^g'][=ac'=a'][^a^^c'^a'] | %365
[bd'b'][^b^^d'^b'][c'^e'c''][=d'f'=d''] | [^d'^^f'^d'']!<)![=e'g'=e''][=f'=a'=f''][e'g'e''] | %367
[d'^^f'd''][=d'^f'=d''][c'^e'c''][=c'=e'=c''] | [bd'b'][^a^^c'^a'][=a^c'=a'][^a^^c'^a'] | %369
!<(! [bd'b'][^b^^d'^b'][c'^e'c''][=d'f'=d'']!<)! | %370
[^d'^^f'^d''][=e'g'=e'']!>![=f'=a'=f''][e'g'e''] |[d'^^f'd''][=d'^f'=d''][c'e'c''][^bf'^b'] | %372
 !>![c'e'c''][^bf'^b']!>![c'e'c''][bf'b'] | %373
!ff! !wedge![c'e'c'']!8va)!!<(! !wedge![^B^b]!wedge![cc']!wedge![Bb]!<)! | %374
!<(! !wedge![cc'] !wedge![Cc]!wedge![=D=d]!<)!!wedge![^D^d] | %375
[Q:1/4=160]"^a tempo""_brio assai" !^![=E=e]2 !^![Gg]2 | [cc']3 [Bb] | %377
 .[=Ac=e=a].[Gg].[=G=g]!arpeggio!.[FAcf] | .[=F=f]!arpeggio!.[=E=Ac=e].[^D^d]!arpeggio!.[EAce] | %379
 !^![=E=e]2 !^![Gg]2 | !^![cc']3 [Bb] | .[=Ac=e=a].[Gg].[Ff].[EAce] | !>![=Ac=e=a]2 !>![ceac']2 | %383
!8va(! [=d'g']/=e''/[=e'b']/e''/ [d'g']/e''/[e'b']/e''/ | %384
 [=d'g']/=e''/[=e'b']/e''/ [d'g']/e''/[e'b']/e''/ | %385
!<(! [c'=a']/=e''/[=e'c'']/e''/ [c'a']/e''/[e'c'']/e''/!<)! | %386
 [c'=a']/=e''/[=e'c'']/e''/ [c'a']/e''/[e'c'']/e''/ | %387
 [=d'g']/=e''/[=e'b']/e''/ [d'g']/e''/[e'b']/e''/ | %388
 [=d'g']/=e''/[=e'b']/e''/ [d'g']/e''/[e'b']/e''/ | %389
!<(! [c'=a']/=e''/[=e'c'']/e''/ [c'a']/e''/[e'c'']/e''/!<)! | %390
 [c'=a']/=e''/[=e'c'']/e''/ [c'a']/e''/[e'c'']/e''/ | %391
"^sempre"!ff!"_stacc." ([f'=d'']/4=e''/4.f''/4) z/4 z ([=d'b']/4c''/4.d''/4) z/4 z | %392
 ([bg']/4=a'/4.b'/4) z/4 z ([g=e']/4f'/4.g'/4) z/4 z!8va)! | %393
!<(! (14:8:14(=A/B/c/=d/=e/f/g/=a/b/c'/=d'/=e'/f'/g'/ | %394
!8va(!(11:8:9=a'/b'/c''/!<)!=d''/=e''/f''/g''/ .=a'') .[a'c''] | %395
!8va(! ([f'=d'']/4=e''/4.f''/4) z/4 z ([=d'b']/4c''/4.d''/4) z/4 z!8va)! | %396
!8va(! ([bg']/4=a'/4.b'/4) z/4 z ([g=e']/4f'/4.g'/4) z/4 z!8va)! | %397
!<(! (14:8:14(=A/B/c/)=d/=e/f/g/=a/b/c'/=d'/!8va(!=e'/f'/g'/!<)! | %398
(11:8:9=a'/b'/c''/=d''/=e''/f''/g''/!wedge!=a'' z | %399
"_stacc."!8va(! ([^d'b']/4c''/4.d''/4) z/4 z ([bg']/4a'/4.b'/4) z/4 z | %400
 ([ge']/4f'/4.g'/4) z/4 z ([ec']/4d'/4.e'/4)!8va)! z/4 z | %401
!<(! (14:8:14(F/G/A/B/c/d/e/f/g/a/b/c'/d'/e'/!<)! | %402
!8va(!(11:8:9f'/g'/a'/b'/c''/d''/)e''/ .f'' .[f'a'] | %403
!8va(! ([d'b']/4c''/4.d''/4) z/4 z ([bg']/4a'/4.b'/4) z/4 z | %404
 ([ge']/4f'/4.g'/4) z/4 z ([ec']/4d'/4.e'/4)!8va)! z/4 z | %405
!<(! (3F/G/A/(3B/c/d/(3e/f/g/(3a/b/c'/!<)! | %406
(3d'/e'/!8va(!f'/(3g'/a'/b'/(3c''/d''/c''/(3^b'/c''/d''/ | e''/c''/c''/c''/ e'/c''/c''/c''/ | %408
 e''/c''/c''/c''/ e'/c''/c''/c''/ | f''/c''/c''/c''/ f'/c''/c''/c''/ | %410
 f''/c''/c''/c''/ f'/c''/c''/c''/ | e''/c''/c''/c''/ e'/c''/c''/c''/ | %412
 e''/c''/c''/c''/ e'/c''/c''/c''/ | f''/c''/c''/c''/ f'/c''/c''/c''/ | %414
 f''/c''/c''/c''/ f'/c''/c''/c''/ | e''/c''/c''/c''/ e'/c''/c''/c''/ | %416
 e''/c''/c''/c''/ e'/c''/c''/c''/ | e''/c''/c''/c''/ e'/c''/c''/c''/ | %418
 e''/c''/c''/c''/ e'/c''/c''/c''/ |"_dim. sempre" e''/c''/c''/c''/ e'/c''/c''/c''/ | %420
 e''/c''/c''/c''/ e'/c''/c''/c''/ | e''/c''/c''/c''/ e'/c''/c''/c''/ | %422
 e''/c''/c''/c''/ e'/c''/c''/c''/ |[Q:1/4=144]"^Vivace"!p! f''!8va)! z (f2 | %424
[Q:1/4=137]"^Vivace" !>!=a4) |[Q:1/4=130]"^Vivace" .gz/(=a/.b)z/(d'/ | %426
[Q:1/4=123]"^Vivace" .c') z/ c/.^d z/ ^e/ |[Q:1/4=111]"^Vivace" x z/ x/ x z/ x/ | %428
[Q:1/4=109]"^Vivace" !^!=a4 |[Q:1/4=102]"^Vivace" x z/ x/ x z/ x/ | %430
[Q:1/4=95]"_Vivace" x z/ x/ x z/ x/ |[Q:1/4=88]"_Vivace" x z/ x/ x z/ x/ | %432
[Q:1/4=81]"_Vivace"{fg} .=a z a2 |[Q:1/4=79]"_più rienuto""^cadenza ad lib." x z/ x/ x z/ x/ | %434
[Q:1/4=40]"_Vivace" !fermata!c'4 || %435
[K:bass]"^martellato"[Q:1/4=200]"^Prestissimo""_staccato"[I:staff +1] C,,/[I:staff -1][C,C]/[I:staff +1]D,,/[I:staff -1][D,D]/[I:staff +1]E,,/[I:staff -1][E,E]/[I:staff +1]F,,/[I:staff -1][F,F]/ | %436
[I:staff +1] !tenuto![G,,C,]/[I:staff -1]!tenuto![G,CG]/[I:staff +1]^^F,,/[I:staff -1][^^F,^^F]/[I:staff +1]G,,/[I:staff -1][G,G]/[I:staff +1]E,,/[I:staff -1][E,E]/ | %437
[I:staff +1] F,,/[I:staff -1][F,F]/[I:staff +1]G,,/[I:staff -1][G,G]/[I:staff +1]A,,/[I:staff -1][K:treble][A,A]/[I:staff +1]B,,/[I:staff -1][B,B]/ | %438
[I:staff +1] !tenuto![C,F,]/[I:staff -1]!tenuto![CFc]/[I:staff +1]^B,,/[I:staff -1][^B,^B]/[I:staff +1]C,/[I:staff -1][Cc]/[I:staff +1]A,,/[I:staff -1][A,A]/ | %439
[I:staff +1] =B,,/[I:staff -1][=B,=B]/[I:staff +1]D,/[I:staff -1][Dd]/[I:staff +1]G,,/[I:staff -1][G,G]/[I:staff +1]B,,/[I:staff -1][B,B]/ | %440
[I:staff +1] E,,/[I:staff -1][E,E]/[I:staff +1]G,,/[I:staff -1][G,G]/[I:staff +1]C,,/[I:staff -1][K:bass][C,C]/[I:staff +1]E,,/[I:staff -1][E,E]/ | %441
[I:staff +1] F,,/[I:staff -1][F,F]/[I:staff +1]A,,/[I:staff -1][A,A]/[I:staff +1]C,,/[I:staff -1][C,C]/[I:staff +1]F,,/[I:staff -1][F,F]/ | %442
[I:staff +1] A,,,/[I:staff -1][A,,A,]/[I:staff +1]C,,/[I:staff -1][C,C]/[I:staff +1][F,,,F,,]/[I:staff -1][F,F]/[I:staff +1][A,,,A,,]/[I:staff -1][K:treble][A,A]/ | %443
[I:staff +1] [C,,E,,C,]/!ff!"^cresc."[I:staff -1][CEGc]/[I:staff +1][D,,D,]/[I:staff -1][Dd]/[I:staff +1][E,,E,]/[I:staff -1][Ee]/[I:staff +1][F,,F,]/[I:staff -1][Ff]/ | %444
[I:staff +1] !>![G,,C,G,]/[I:staff -1]!>![Gcg]/[I:staff +1][^^F,,^^F,]/[I:staff -1][^^F^^f]/[I:staff +1][G,,^^C,G,]/[I:staff -1][Gcg]/[I:staff +1][E,,E,]/[I:staff -1][Ee]/ | %445
[I:staff +1] [F,,A,,C,F,]/[I:staff -1][FAcf]/[I:staff +1][G,,G,]/[I:staff -1][Gg]/[I:staff +1][A,,A,]/[I:staff -1][Aa]/[I:staff +1][B,,B,]/[I:staff -1][Bb]/ | %446
[I:staff +1] !>![C,F,C]/[I:staff -1]!>![cfc']/[I:staff +1][^B,,^B,]/[I:staff -1][^B^b]/[I:staff +1][C,F,C]/[I:staff -1][cfc']/[I:staff +1][A,,A,]/[I:staff -1][Aa]/ | %447
!<(![I:staff +1] [C,E,G,C]/"^più cresc."[I:staff -1][cegc']/[I:staff +1][D,D]/[I:staff -1][dd']/[I:staff +1][E,E]/[I:staff -1][ee']/[I:staff +1][F,F]/[I:staff -1][ff']/!<)! | %448
!8va(![I:staff +1] !>![Gcg]/[I:staff -1]!>![gc'g']/[I:staff +1][^^F^^f]/[I:staff -1][^^f^^f']/[I:staff +1][Gcg]/[I:staff -1][gc'g']/[I:staff +1][Ee]/[I:staff -1][ee']/ | %449
!<(![I:staff +1] [FAcf]/[I:staff -1][fac'f']/[I:staff +1][Gg]/[I:staff -1][gg']/[I:staff +1][Aa]/[I:staff -1][aa']/[I:staff +1][Bb]/[I:staff -1][bb']/ | %450
[I:staff +1] !>![cfc']/[I:staff -1]!>![c'f'c'']/[I:staff +1][^B^b]/[I:staff -1][^b^b']/[I:staff +1][cfc']/[I:staff -1][c'f'c'']/[I:staff +1][Aa]/[I:staff -1][aa']/!<)! | %451
!ff![I:staff +1] [=B=b]/[I:staff -1]!>![=b=b']/[I:staff +1][dd']/[I:staff -1][d'd'']/[I:staff +1][Gg]/[I:staff -1][gg']/[I:staff +1][Bb]/[I:staff -1][bb']/!8va)! | %452
[I:staff +1] [E,E]/[I:staff -1][ee']/[I:staff +1][G,G]/[I:staff -1][gg']/[I:staff +1][C,C]/[I:staff -1][cc']/[I:staff +1][E,E]/[I:staff -1][ee']/ | %453
[I:staff +1] [A,,A,]/[I:staff -1][Aa]/[I:staff +1][C,C]/[I:staff -1][cc']/[I:staff +1][F,,F,]/[I:staff -1][Ff]/[I:staff +1][A,,A,]/[I:staff -1][Aa]/ | %454
[I:staff +1] !>![D,,D,]/[I:staff -1][Dd]/[I:staff +1][F,,F,]/[I:staff -1][Ff]/[I:staff +1][B,,,B,,]/[I:staff -1][B,B]/[I:staff +1][D,,D,]/[I:staff -1][Dd]/ | %455
[I:staff +1] !>![G,,,G,,]/[I:staff -1][G,G]/[I:staff +1][B,,,B,,]/[I:staff -1][B,B]/[I:staff +1][E,,,E,,]/[I:staff -1][K:bass][E,E]/[I:staff +1][G,,,G,,]/[I:staff -1][G,G]/ | %456
[I:staff +1] !>!C,,/[I:staff -1][C,C]/[I:staff +1]E,,/[I:staff -1][E,E]/[I:staff +1]A,,,/[I:staff -1][A,,A,]/[I:staff +1]C,,/[I:staff -1][C,C]/ | %457
[I:staff +1] [F,,,F,,]/[I:staff -1]F,/[I:staff +1][A,,,A,,]/[I:staff -1]A,/[I:staff +1]D,,/[I:staff -1]D,/[I:staff +1]F,,/[I:staff -1]F,/ | %458
[Q:1/4=60]"_Lento" =C, z[Q:1/4=100]"_Maestoso" !fermata!z2 | %459
[K:G][K:treble]!ff![Q:1/4=60]"_Lento"{/[Ece]} !>![Ece]2[Q:1/4=60]"_Maestoso"{/[FAcf]} !>![FAcf]2 | %460
[Q:1/4=120]"_Moderato"{/[GBdg]} !^![GBdg]4 |[K:G][Q:1/4=184]"^Presto"!8va(! x z x!8va)! z | %462
 !wedge![G,G] z[Q:1/4=92]"^Presto" !fermata!z2!8va)!!8va)!!8va)! |] %463
V:2
{/C} (17:16:2x4 z/4 | x4 | x3"^Lento" (5:2:5B,/C/E/=D/"^Lento a capriccio"C/ | x4 | x4 | %5
 x3"^Lento" (6:2:6B,/A,/G,/B,/!f!A,/"^Lento a capriccio"G,/ |[K:bass] z2{/[C,^E,]} .[C,E,] z | %7
 x3"^Lento""^poco rit."!>(! (3:1:6G,/A,/G,/B,/A,/"^Lento a capriccio"G,/!>)! | %8
 z x{/[C,D,]} .[C,D,] x | .[^B,,D,F,] z !fermata!z2 ||[M:2/4] x4 | x4 | .C x [E,G,] z | %13
 x2 !arpeggio![F,A,] x | x2 [E,G,] x | x2 [E,G,] x | x2 [G,B,] z |[K:treble] x2 [A,B,] x | %18
 x2 [G,B,] x | x2 E>D |{G,CEG} .c x [EG] z | [FA] x3 | x2 G x | z2 [EG] x | x4 | x3 | x4 | x4 | %28
 x3/2 x/4 x/4 [B,D] x | x3 (2:1:3x"_Andante Mesto" G/G/ | .[eg] x B z | x4 | %32
 x3/2 (3:1:3f/f/g/ .[df] x/ ([^^c^e]/ | x4 | .[ce]) x G z | x4 | %36
 x3/2 (3:1:3(d/d/e/ .[^Bd]) x/ x/4 [^Ac]/4 | x4 | (d>G^B>c) | (d>fe>d) | (c>G)c>d | (e>g)f>e | %42
 (dG)^Bc | dfed | c z .c x/ .d/ | e.gc'e' |!8va(! x g/ x/ ^b/ x/ c'/ x/ | %47
 d'/ x/ f'/ x/ e'/ x/ d'/ x/ | x g/ x/ c'/ x/ d'/ x/ | e'/ x/ g'/ x/ f'/ x/ e'/ x/ | %50
 d'/ x/ g/ x/ ^b/ x/ c'/ x/ | d'/ x/ f'/ x/ e'/ x/ d'/ x/ | c' z c' x/ ^b/ | %53
 c'2!pp! (11:8:11(e'/4g'/4)e''/4d''/4c''/4g'/4e'/4d'/4c'/4g/4e/4 | x4!8va)! | x4 | x4 | x4 | %58
 x3/4!8va(! x13/4 | x!8va)! x3 | x/4 x/4 x/4 x/4 x/4 x/4 x/4 x/4 x/4 x/4 x/4 x/4 x/4 x/4 x/4 x/4 | %61
 x/4 x/4 x/4 x/4 x/4 x/4 x/4 x/4 x/4 x/4 x/4 x/4 x/4 x/4 !trill)!x/4 x/4 | x4 | x4 | %64
 x4/3!8va(! x7/5!8va)! x19/15 | x4 | x4 | x3"_Lento" (5:2:5B,/C/E/=D/"_Lento a capriccio"C/ | x4 | %69
 x4 | x3"_Lento" (6:2:6B,/A,/!<(!G,/B,/A,/!<)!"_Lento a capriccio"G,/ | %71
[K:bass] z2{/[C,^E,]} .[C,E,] z | z2{/[C,=E,]} [C,E,]"_Lento""_rit." z | %73
 x x!>(!{/[C,D,]} [C,D,] z | z2!>)! .[^B,,D,F,]"_Lento" !fermata!z | x4 | x4 | x4 | x2 | x4 | x2 | %81
 x4 |[K:treble] x4 | x4 | x2 | x2 | x2 | x2 E>D | x2 C2- | C/^B,/C/D/ E/A,/E/D/ | .C z | x4 | %92
 Cz/^B,/ | x4 | x4 | x49/12 | x4 | x4 | x4 | x (2:1:3x (b/c'/) x2 | x4 | x4 | x4 | %103
 x (2:1:3x g/a/ x2 | x4 | x3/2 (3:1:3A/=d/g/ A2- | A x3 | x3/2 (3:1:3(F/A/e/ A2-) | A4 | x4 | x4 | %111
 x (2:1:3x B/c/ x2 | x4 | x4 | x4 | x (2:1:3x G/A/ x2 | x4 | x3/2 (3:1:3A,/=D/G/ A,2- | A, x3 | %119
 x2[K:bass] x2 | x4 | x4 | x4 | x4 | x4 | x4 | x4 | x4 | x4 | x4 | x4 | x4 |][K:treble] (g>c)g>a | %133
 (g>b)a>g | (f>c)f>g | (a>c')b>a | (g>c)g>a | (g>b)a>g | (f>c)f>g | (f>c)a>c | (g>c)g>a | %141
 (g>b)a>g | (f>c)f>g | (a>c')b>a | (g>c)g>a | (g>b)a>g | (f>c)f>g | (f>c)a>c | x4 | x4 | x4 | x4 | %152
 x4 | x4 | x4 | x4 | !tenuto!G2 x2 | x4 | !tenuto!F2 x3/2 G/ | x4 | !tenuto!G2 x3/2 B/ | x4 | %162
 !tenuto!F2 x3/2 G/ | x4 | !tenuto![Gg] x3 | !tenuto![Aa] x !tenuto![Gg] x | %166
 !tenuto![Ff]2 x3/2 [Gg]/ | z/ c/c/c/ z/ c/c/c/ | z/ c/c/c/c/c/ z/ c/ | [Aa] x [Gg] x | %170
 [Ff]2 x3/2 [Gg]/ | z/ c/c/c/ z/ c/c/c/ | x4 | x4 | x4 | x4 | x4 | x4 | x4 | x4 | x4 | x4 | x4 | %183
 x4 | x4 | x4 | x4 | x4 | x4 | x4 | x4 | x4 ||[K:F#][M:2/4] x4 | x4 | x4 | x4 | x4 | x4 | x4 | x4 | %200
 x4 | x4 | x4 | x4 | x4 | x4 | x4 | x4 | x4 | x4 | x4 | x4 | x4 | x4 | x4 | x4 | %216
!8va(! ^b/c''/c'/c''/=b/c''/c'/c''/ | ^b/c''/c'/c''/=b/c''/c'/c''/ | ^b/c''/c'/c''/a/c''/c'/c''/ | %219
 ^b/c''/c'/c''/a/c''/c'/c''/ | ^b/c''/c'/c''/=b/c''/c'/c''/ | ^b/c''/c'/c''/=b/c''/c'/c''/ | %222
 a/c''/c'/c''/ a/c''/c'/c''/ | a/c''/c'/c''/a/c''/c'/c''/ | x4 | x4 | x4 | x4 | x4 | x4 | x4 | x4 | %232
 x4 | x4 | x4 | x4 | x4 | x4 | x4 | x4 | x4 | x4 | x4 | x4 | x4 | x4 | x4 | x4 | x!8va)! x3 | x4 | %250
 x4 | x4 | x4 | x4 |!8va(! x4 | x4 | x!8va)! x3 | x4 | x4 | x4 | x4 | x4 |!8va(! x4 | x4 | %264
 x!8va)! x3 | x4 |!8va(! x!8va)! x3 | x4 | x4 | x4 | x4 | x4 |!8va(! x!8va)! x3 | x4 | %274
!8va(! x2!8va)! x2 | x4 | x4 | x4 | x4 | x4 | x4 |!8va(! x4 | x4 | x4 | x4 | x4 | x!8va)! x3 | x4 | %288
 z"_brioso assai" .[EG] x .[Gc] | z .[ce].[ce] x | x4 | x4 | z .[EG] x .[Gc] | z .[ce].[ce] x | %294
 x4 | x4 |!8va(! x4 | x4 | x4 | x4 | x4 | x4 | x4 | x4 | x4 | x4 | x4 | x4 | x4 | x4 | x4 | x4 | %312
 x4 | x4 | x4 | x4 | x4 | x4 | x4 | x3!8va)! x |[K:bass] x4 | x4 | x4 | x4 | x4 | x4 | x4 | x4 | %328
[K:treble] x4 | x4 | x4 | x4 | .d x .[Bg] x | .G x .[Ec] x | .[Af] x .[Fc] x | .[CA] x3 | %336
[K:bass] x4 | x4 | x4 | x4 | x4 | x4 | x4 | x4 |[K:treble] x4 | x4 | x4 | x4 | %348
!8va(! .a x .f x!8va)! | .d x .^B x | .e x .c x | .G x E2 |!8va(! x4 | x4 | x4 | x4 | %356
 !wedge!f'' x !wedge!d'' x | !wedge!^b' x !wedge!g' x!8va)! | x4 | x4 | x4 | x4 | x4 |!8va(! x4 | %364
 x4 | x4 | x4 | x4 | x4 | x4 | x4 | x4 | x4 | x!8va)! x3 | x4 | z .[GB] x .[B=e] | %376
 z .[=eg].[eg] x | x4 | x4 | z .[GB] x .[B=e] | z .[=eg].[eg] x | x4 | x4 |!8va(! x4 | x4 | x4 | %386
 x4 | x4 | x4 | x4 | x4 | x4 | x4!8va)! | x161/40 |!8va(! x4 |!8va(! x4!8va)! |!8va(! x4!8va)! | %397
 x3!8va(! x55/64 | x4 |!8va(! x4 | x11/4!8va)! x5/4 | x161/40 |!8va(! x4 |!8va(! x4 | %404
 x11/4!8va)! x5/4 | x4 | x2/3!8va(! x10/3 | x4 | x4 | x4 | x4 | x4 | x4 | x4 | x4 | x4 | x4 | x4 | %418
 x4 | x4 | x4 | x4 | x4 | x!8va)! x3 | x4 | x4 | x4 |{fg} .f x/ (e/.f) x/ g/ | x4 | %429
 .g x/ (=a/.b) x/ (=d'/ | .c') x/ (c/.^d) x/ (^e/ |{fg} .f) x/ (e/.f) x/ g/ | x4 | %433
 .g x/ (=a/.b) x/ =d'/ | x4 ||[K:bass] x4 | x4 | x5/2[K:treble] x3/2 | x4 | x4 | %440
 x5/2[K:bass] x3/2 | x4 | x7/2[K:treble] x/ | x4 | x4 | x4 | x4 | x4 |!8va(! x4 | x4 | x4 | %451
 x4!8va)! | x4 | x4 | x4 | x5/2[K:bass] x3/2 | x4 | x4 | x4 |[K:G][K:treble] x4 | x4 | %461
[K:G]!8va(! !wedge![gbd'g'] x !wedge![g'b'd''g'']!8va)! x | x4!8va)!!8va)!!8va)! |] %463
V:3
!ped! z2{/[^E,G,]} .[E,G,] z!ped-up! | x4 |!ped! z2{/[=D,F,]} .[D,F,] z!ped-up! | %3
!ped! z2{/[^E,G,]} .[E,G,]!mf! z!ped-up! | z4 |!ped! z2{/[=D,F,]} .[D,F,] z!ped-up! | %6
!ped! z2{/[C,,G,,]} .[C,,G,,] z!ped-up! |!ped! z2{/[E,,G,,]} .[E,,G,,] z!ped-up! | %8
!ped! z2!mp!{/G,,} (2:1:1(G,,2!ped-up! z | %9
!mf!!<(! (3(G,,/A,,/)G,,/(3=B,,/A,,/G,,/!<)! (3F,,/E,,/F,,/!>(!(3D,,/!fermata!A,,3/4G,,/4)!>)! || %10
[M:2/4]!mp!!ped!(x>G,, C,2) |(x>G,, C,2) |(x>G,, C,2)!ped-up! |!ped!(x>A,, C,2)!ped-up! | %14
(x>G,, C,2) |(x>G,, C,2) |!ped!(x>B,, E,2)!ped-up! |!ped!(x>B,, D,2)!ped-up! | %18
!ped!(x>B,, E,2)!ped-up! |!ped! (E,,>B,,!ped-up!!ped! ^B,,2)!ped-up! | %20
!ped!(x>G,,!ped! [C,E,]2)!ped-up! |!ped!(x>C, [F,A,]2)!ped-up! |!ped!(x>G,, [C,E,]2)!ped-up! | %23
!ped! C,,>G,, [C,G,]3/2 [^^C,,^^C,]/!ped-up! |!ped! [D,,D,]>([D,G,] [B,D]2)!ped-up! | %25
!<(!!ped! [D,,D,]>!<)!([D,^A,] [CD]) | x!ped-up! !fermata!z x x2 | x4 | %28
!ped! [G,,,G,,]>!ped-up!([G,,D,] [D,G,]2) | [G,,,G,,]>([G,,D,] !fermata![D,G,]2) | %30
!p!!ped! x z/ x/ x x!ped-up! |!ped! x z/ x/ x x!ped-up! |!ped! x z/ x/ x x!ped-up! | %33
 x z/ x/ x z/ x/ | x z/ x/ x x |!mp! x z/ x/!mp! x x | x z/ x/ x x | x z/ x/ x x | %38
 .G,,, (3(D,/G,/D/"^ten." ^B,2) | .G,, (3(G,/^B,/G/"^ten." D2) | .G,,, (3(E,/G,/E/"^ten." C2) | %41
 .G,, (3(G,/C/G/"^ten." E2) | .G,,, (3(D,/G,/D/ ^B,2) | .G,, (3(G,/^B,/G/ D2) | %44
 .G,,, (3(E,/G,/E/ C2) | G,, (3(G,/C/G/ E2) |"_ten."!ped! G,,,2[K:treble]{G,^B,G} D2!ped-up! | %47
[K:bass]"_ten." G,,2[K:treble]{D^Bd} G2 |[K:bass]"_ten."!ped! G,,,2[K:treble]{G,CG} E2!ped-up! | %49
[K:bass] G,,2[K:treble]{Ece} G2 |[K:bass]"_ten."!ped! G,,,2[K:treble]{G,^B,G} E2!ped-up! | %51
[K:bass]!ped! G,,2[K:treble]{E^Be} G2!ped-up! |[K:bass]"_ten." G,,,2[K:treble]{G,CG} E2 | %53
[K:bass] G,,2[K:treble]{Ece} G2 |[K:bass] .G,,/.D,/.F,/.^B,/ .D/.G/.D/.G/ | %55
 .G,,/.D,/.F,/.^B,/ .D/.G/.D/.G/ | .G,,/.E,/.G,/.C/ .E/.G/.E/.G/ | .G,,/.E,/.G,/.C/ .E/.G/.E/.G/ | %58
 .G,,/.D,/.F,/.^B,/ .D/.G/.D/.G/ | .G,,/.D,/.F,/.^B,/ .D/.G/.D/.G/ | %60
 .C,,/.G,,/.^E,/.G,/ .C/.G/.C/.G/ | .C,/.G,/.^E/.G/[K:treble] .c/.g/.c/.g/ | !///-!c2 g2 | %63
 !///-!c g!pp! !///-!c g |!mp! (1:4:1!arpeggio![cg] | %65
[K:bass]!f! z2!mf!!ped!{/[^E,G,]} .[E,G,] z!ped-up! | x4 | z2!ped!{/[=D,F,]} .[D,F,] z!ped-up! | %68
 z2!ped!{/[^E,G,]} .[E,G,] z!ped-up! | x4 | z2!ped!{/[=D,F,]} .[D,F,] z!ped-up! | %71
 z2!ped!{/[C,,G,,]} .[C,,G,,] z!ped-up! | z2!ped!{/[E,,G,,]} .[E,,G,,] z!ped-up! | %73
 z2!ped!{/G,,} .G,, z!ped-up! | z2 .G,, !fermata!z | z3/2 !>!G,,,<!>!=A,,,=B,,,/ | %76
 .C,, z{/C,,} !>!C,2- | C,/!<(!^B,,/C,/D,/!<)!!>(! E,/A,,/E,/!>)!D,/ | .C, z | %79
 (6:12:4C,,/G,,/C,/D,/ | C,>^B,, | (C,7/2 D,/ | .E,) z !>!E,2- | %83
!<(! (E,/D,/E,/F,/!<)!!>(! G,/B,,/G,/!>)!F,/) | (E,2 | (E,,/)B,,/)E,/F,/ | E,z/D,/ | .E, z E,>D, | %88
{C,,C,} .C z!f! !>!C,2- | C,/^B,,/C,/D,/ E,/A,,/E,/D,/ | .C, z | x4 | C,, x | .C, z ([E,^^F,C]2 | %94
 !arpeggio!.[E,G,E]) z !^!G,,,2- | %95
 (63:16:63(G,,,/4^^F,,,/4)G,,,/4A,,,/4^B,,,/4C,,/4D,,/4E,,/4^F,,/4G,,/4=B,,/4A,,/4G,,/4^^F,,/4 G,,/4A,,/4^B,,/4C,/4D,/4E,/4^F,/4!<(! x/4 x/4 x/4!<)! x/4 x/4 x/4 x/4 x/4 x/4 x/4 x/4!<(! x/4 x/4 x/4!<)! x/4[K:treble] x/4 x/4 x/4 x/4 x/4 x/4 x/4!<(! x/4 x/4 x/4!<)! x/4 g/4[I:staff -1]a/4[I:staff +1]g/4[I:staff -1]a/4[I:staff +1]g/4[I:staff -1]a/4[I:staff +1]g/4[I:staff -1]a/4[I:staff +1]g/4[I:staff -1]a/4[I:staff +1]g/4[I:staff -1]a/4[I:staff +1]g/4[I:staff -1]a/4[I:staff +1]g/4[I:staff -1]a/4 | %96
[I:staff +1] x4 |[K:bass] x z/[K:treble] x/ x2 |[K:bass] x z/[K:treble] x/ x2 | %99
[K:bass] x z/[K:treble] x/ x2 | z2[K:bass] !>![^E,CG]2 | x z/ x/ x2 | x z/ x/ x2 | x z/ x/ x2 | %104
 z2 z3/2 (3:1:3(C,,/D,,/E,,/ | .F,,) z [F,A,=DF]2- | [F,A,DF] z z3/2 (3:1:3(=D,,/E,,/F,,/ | %107
 .G,,) z [F,A,^B,=D]2- | [F,A,B,D]2 z2 | A,, z [E,A,C]2 | C, z [E,A,C]2 | E,, z [E,G,B,]2 | %112
 z2 ([^E,,C,G,]2 | .F,,) z [C,F,A,]2 | A,, z [C,F,A,]2 | C,, z [C,E,G,]2 | %116
 z2 z3/2 (3:1:3(C,,/D,,/E,,/ | .F,,,) z [F,,A,,=D,F,]2- | %118
 [F,,A,,D,F,] z z3/2 (3:1:3(=D,,/E,,/F,,/ | .G,,,) z [F,,A,,^B,,=D,]2- | [F,,A,,B,,D,]4 | %121
 z2 z3/2 (3:1:3(G,,,/=A,,,/)^B,,,/ |!f! C,,4 | (3:8:3(C,,/B,,,/)C,,/ | B,,,4 | C,,4 | %126
 (3:8:3(C,,/B,,,/C,,/ | B,,,4) | G,,,4 | G,,,4 | [C,,,G,,,C,,]4- | %131
 !fermata![C,,,G,,,C,,]2 !fermata!z2 |][K:treble] z4 | z4 | z4 | z4 | z4 | z4 | z4 | z4 | %140
!ped! z2({G^e)} G2!ped-up! |!8va(! z2({g'c'')} g'2!8va)! |!ped! z2({CA)} C2!ped-up! | %143
!8va(! z2({f'c'')} f'2!8va)! |!ped! z2{G^e} G2!ped-up! |!8va(! z2{g'c''} g'2!8va)! | %146
!ped! z2{CA} C2!ped-up! |!8va(! z2{f'c''} f'2!8va)! |!ped! z2{G^e} G2!ped-up! | %149
!8va(! z2{g'c''} g'2!8va)! |!ped! z2{CA} C2!ped-up! |!8va(! z2{f'c''} f'2!8va)! | %152
!ped! z2{G^e} G2!ped-up! |!8va(! z2{g'c''} g'2!8va)! |!ped! z2{CA} C2!ped-up! | %155
!8va(! z2{f'c''} f'2!8va)! |!f! z[K:bass] .C,.B,.^E | .A x .G x | z .C,.A,.C | .A x .F x | %160
 z .C,.B,.^E | .A x .G x | z .C,.A,.C | .A x .F x |!ped! z .C,!ped-up!.B,.^E | z .^E.B,.C, | %166
!ped! z .C,.A,.F!ped-up! | z .F.A,.C, |!ped! z .C,.B,.^E!ped-up! | z .^E.B,.C, | %170
!ped! z .C,.A,.F!ped-up! | z .F.A,.C, |"^ten." G,2"^ten." [C^EB]2 | x .[C^EA].B,.[CEG] | %174
"^ten." F,2"^ten." [CFA]2 | x .[A,CG].F,.[A,CF] | !tenuto!G,2 !tenuto![C^EB]2 | %177
 x .[C^EA].B,.[CEG] | !tenuto!F,2 !tenuto![CFA]2 | x .[A,CG].F,.[A,CF] | G,2 [C^EB]2 | %181
 C,2 [C^EB]2 | F,2 [CF^A]2 | C,2 [CF^A]2 | .G,.[C^EB] .C,.[CEB] | .G,.[C^EB] .C,.[CEB] | %186
 .F,.[CF^A] .C,.[CFA] | .F,.[CF^A] .C,.[CFA] | G,[C^EB] C,[CEB] | G,[C^EB] C,[CEB] | %190
 F,[CF^A] C,[CFA] | F,[CF^A] C,[CFA] ||[K:F#][M:2/4]!ped! [G,,G,][G,CE] [C,,C,]!ped-up![G,CE] | %193
 [G,,G,][G,CE] [C,,C,][G,CE] |!ped! [F,,F,][A,CF] [C,,C,][A,CF]!ped-up! | %195
 [F,,F,][A,CF] [C,,C,][A,CF] |!ped! [G,,G,][B,CE] [C,,C,][B,CE]!ped-up! | %197
 [G,,G,][B,CE] [C,,C,][B,CE] |!ped! [F,,F,][A,CF] [C,,C,][A,CF]!ped-up! | %199
 [F,,F,][A,CF] [C,,C,][A,CF] |"_il basso sempre stacc." .G, .[CE] .C, .[G,CE] | %201
 .G,, .[G,CE] .C,, .[G,CE] | .F, .[A,CF] .C, .[A,CF] | .F,, .[A,CF] .C,, .[A,CF] | %204
 .G, .[CE] .C, .[G,CE] |!p!!ff! .G,, .[G,CE] .C,, .[G,CE] | .F, .[A,CF] .C, .[A,CF] | %207
!ff! .F,, .[A,CF] .C,, .[A,CF] |!mf! .F,.[B,D] .C,.[DF] | .F,.[B,D] .C,.[DF] | .F,.[A,C] .C,.[CF] | %211
 .F,.[A,C] .C,.[CF] | .F,.[B,D] .C,.[DF] | .F,.[B,D] .C,.[DF] | .F,.[A,C] .C,.[CF] | %215
 .F,.[A,C] .C,.[CF] | G,[CE] C,[CE] |[K:treble] .G [ce] .C [ce] |[K:bass] F,[A,CF] C,[A,CF] | %219
[K:treble] .A [cf] .F [cf] |[K:bass] G,[CE] C,[CE] |[K:treble] .G [ce] .C [ce] | %222
[K:bass] F,[A,CF] C,[A,CF] |[K:treble] .A [cf] .F [cf] |!pp!!mf! .F.[Bd] .C.[df] | %225
 .F.[df] .B.[df] | .F.[Ac] .C.[cf] | .F.[cf] .A.[cf] | .F.[Bd] .C.[df] | .F.[df] .B.[df] | %230
 .F.[Ac] .C.[cf] | .F.[cf] .A.[cf] |!<(! z!f!!mp! x z x!<)! | z x z x | z{/E} .F{/=E} .^E{/D} .=E | %235
 z{/=D} .^D{/C} .=D{/^B,} .C | z!<(! x z x!<)! | z x z x | z{/E} .F{/=E} .^E{/D} .=E | %239
 z{/=D} .^D{/C} .=D{/^B,} .C |[K:bass]!p! .G,.[CE] .C,.[CE] | %241
[K:treble]!p! .[G^B].[Ec] (!>![G=B]>[Ec]) |[K:bass] .F,.[CF] .C,.[CF] | %243
[K:treble]!p! .[^^G^B].[Ac] (!^!A>c) |[K:bass] .G,.[CE] .C,.[CE] | %245
[K:treble]!p!!p! .[G^B].[Ec] (!>![G=B]>[Ec]) |[K:bass] .F,.[CF] .C,.[CF] | %247
[K:treble]!p! .[^^G^B].[Ac] (!>![FA]>c) |[K:bass]!mf! .G,.[CEB].C,.[CEB] | .G,.[CEB].C,.[CEB] | %250
 .F,.[CFA].C,.[CFA] | .F,.[CFA].C,.[CFA] | .G,.[CEB].C,.[CEB] | .G,.[CEB].C,.[CEB] | %254
 .F,.[CFA].C,.[CFA] | .F,.[CFA].C,.[CFA] | .G,.[CEB].C,.[CEB] | .G,.[CEB].C,.[CEB] | %258
 .F,.[CFA].C,.[CF] | .F,.[CF].C,.[CF] | .G,.[B,CE].C,.[B,CE] | .G,.[B,CE].C,.[B,CE] | %262
 .F,.[A,CF].C,.[A,CF] | .F,.[A,CF].C,.[A,CF] | .D,.[G,^B,F].G,,.[G,B,] | .D,.[G,^B,].G,,.[G,B,] | %266
 .C,.[G,CE].G,,.[G,C] | .C,.[G,C].G,,.[G,C] | .D,.[F,G,^B,].G,,.[F,G,B,] | %269
 .D,.[G,^B,F].G,,.[G,B,] | .C,.[G,CE].G,,.[G,C] | .C,.[G,CE].G,,.[G,C] | .D,.[G,^B,F].G,,.[G,B,] | %273
 .D,.[G,^B,].G,,.[G,B,] | .C,.[G,CE].G,,.[G,C] | .C,.[G,C].G,,.[G,C] | .D,.[F,G,^B,].G,,.[F,G,B,] | %277
 .D,.[G,^B,F].G,,.[G,B,] | !>![C,G,C][=D,=D][^B,,^B,][C,C] | [=B,,=B,][=C,=C][^A,,^A,][B,,B,] | %280
[=A,,=A,][^A,,^A,][G,,G,][=A,,=A,] |[=G,,=G,][^G,,^G,][F,,F,][=G,,=G,] | %282
 [E,,E,][F,,F,][=E,,=E,][=F,,=F,] |[D,,D,][=E,,=E,][^D,,^D,][=D,,=D,] | %284
 [C,,C,][=D,,=D,]!>![C,,G,,C,][D,,D,] |!>![C,,G,,C,][=D,,=D,]!>![C,,G,,C,][D,,D,] | %286
 !wedge![C,,G,,C,] !wedge![^B,,^B,]!wedge![C,C]!wedge![B,,B,] | %287
 !wedge![C,C] !wedge![^B,,,^B,,]!wedge![C,,C,]!wedge![B,,,B,,] | %288
!fff!!ped! !^![C,,C,]2 !^![E,,E,]2!ped-up! |!ped! !^![A,,A,]3 [G,,G,]!ped-up! | %290
!ped! .[F,,A,,C,F,].[E,,E,].[=E,,=E,]!arpeggio!.[D,,F,,A,,D,]!ped-up! | %291
 .[=D,,=D,].[C,,F,,A,,C,].[^B,,,^B,,]!ped-up!!ped!!arpeggio!.[C,,F,,A,,C,] | %292
 !^![C,,C,]2 !^![E,,E,]2 |!ped! !^![A,,A,]3 [G,,G,]!ped-up! | %294
!ped! .[F,,A,,C,F,].[E,,E,].[D,,D,].[C,,F,,A,,C,]!ped-up! | !>![F,,A,,C,F,]2 !>![A,,C,F,A,]2 | %296
!ped! x4!ped-up! | .[C,C] !^![A,A]2 .[G,G] | .[F,F].[E,E].[=E,=E].[D,D] | %299
 .[=D,=D].[C,C].[A,,A,].[F,,F,] |!ped! x4!ped-up! | .[C,C] !^![A,A]2 .[G,G] | %302
 .[F,F].[E,E].[=E,=E].[D,D] | .[=D,=D].[C,C].[^B,,^B,].[C,C] | .G,.[CEB] .C,.[CEB] | %305
[K:treble] .[G^B].[Ec] !>![G=B]>[Ec] |[K:bass] .F,.[CFA] .C,.[CFA] | %307
[K:treble] .[^^G^B].[Ac] (!>!A>c) |[K:bass] .G,.[CEB] .C,.[CEB] | %309
[K:treble] .[G^B].[Ec]([G=B]>[Ec]) |[K:bass] .F,.[CFA] .C,.[CFA] | %311
[K:treble] .[^^G^B].[Ac] (!>!A>c) |!p! .F.[Bd] .C.[df] | .F.[df] .B.[df] | .F.[Ac] .C.[cf] | %315
 .F.[cf] .A.[cf] |!pp!!p!!p!!ped! .F.[Bd] .C.[df]!ped-up! | .F.[df] .B.[df] | %318
!ped! .F.[Ac] .C.[cf]!ped-up! | .F.[cf] .A.[cf] |!pp! G,[EB]C[EB] | G,[EB]C[EB] | A,[FA]C[FA] | %323
 A,[FA]C[FA] | G,[EB]C[EB] | G,[EB]C[EB] | A,[FA]C[FA] | A,[FA]C[FA] |[K:bass]!p! G,[B,E]C,[B,C] | %329
 G,[B,E]C,[B,C] | F,[A,F]C,[A,C] | F,[A,F]C,[A,C] | G,[B,E]C,[B,C] | G,[B,E]C,[B,C] | %334
 F,[A,F]C,[A,C] | F,[A,F]C,[A,C] | D,[^B,F]G,[B,F] | D,[^B,F]G,[B,F] | E,[CE]G,[CE] | %339
 E,[CE]G,[CE] | D,[^B,F]G,[B,F] | D,[^B,F]G,[B,F] | E,[CE]G,[CE] | E,[CE]G,[CE] | %344
 D,[G,^B,F]G,,[G,B,F] | D,[G,^B,F]G,,[G,B,F] | C,[G,CE]G,,[G,CE] | C,[G,CE]G,,[G,CE] | %348
 D,[G,^B,F] G,,[G,B,F] | D,[G,^B,F] G,,[G,B,F] | C,[G,CE] G,,[G,CE] | C,[G,CE] G,,[G,CE] | %352
!ped! D,[G,^B,F]G,,!ped-up![G,B,F] | D,[G,^B,F]G,,[G,B,F] |!ped! D,[G,CE]G,,[G,CE]!ped-up! | %355
 D,[G,CE]G,,[G,CE] |!ped! D,[G,^B,F] G,,[G,B,F]!ped-up! | D,[G,^B,F] G,,[G,B,F] | %358
 [C,C][^B,,^B,][=B,,=B,][^A,,^A,] |[=A,,=A,][^A,,^A,][=B,,=B,][^B,,^B,] | %360
 [=B,,=B,][^A,,^A,][^^G,,^^G,][^G,,^G,] | [=G,,=G,][^G,,^G,][=A,,=A,][^A,,^A,] | %362
 [^^G,,^^G,][^G,,^G,][=G,,=G,][F,,F,] | [^E,,^E,][F,,F,][=G,,=G,][^G,,^G,] | %364
 [=G,,=G,][F,,F,][^E,,^E,][=E,,=E,] |[D,,D,][=D,,=D,][C,,C,][^B,,,^B,,] | %366
 [=B,,,=B,,][^A,,,^A,,][=A,,,=A,,][^A,,,^A,,] |[=B,,,=B,,][^B,,,^B,,][C,,C,][=D,,=D,] | %368
 [^D,,^D,][=E,,=E,][^E,,^E,][=E,,=E,] | [D,,D,][=D,,=D,][C,,C,][^B,,,^B,,] | %370
[=B,,,=B,,][^A,,,^A,,]!>![=A,,,=A,,][^A,,,^A,,] |[=B,,,=B,,][^B,,,^B,,][C,,G,,C,][=D,,=D,] | %372
 !>![C,,G,,C,][=D,,=D,]!>![C,,G,,C,][D,,D,] | %373
 !wedge![C,,G,,C,] !wedge![^B,,^B,]!wedge![C,C]!wedge![B,,B,] | %374
 !wedge![C,C] !wedge![C,,C,]!wedge![=D,,=D,]!wedge![^D,,^D,] |!fff! !^![=E,,=E,]2 !^![G,,G,]2 | %376
 !^![C,C]3 .[B,,B,] | .[=A,,C,=E,=A,].[G,,G,].[=G,,=G,]!arpeggio!.[F,,A,,C,F,] | %378
 .[=F,,=F,]!arpeggio!.[=E,,=A,,C,=E,].[^D,,^D,]!arpeggio!.[E,,A,,C,E,] | %379
 !^![=E,,=E,]2 !^![G,,G,]2 | !^![C,C]3 [B,,B,] | .[=A,,C,=E,=A,].[G,,G,].[F,,F,].[=E,,A,,C,E,] | %382
 !>![=A,,C,=E,=A,]2 !>![C,E,A,C]2 | x4 | [=E,=E][K:treble] !^![Cc]2 .[B,B] | %385
 .[=A,=A].[G,G].[=G,=G].[F,F] |[K:bass] (!>![=F,=F][=E,=E]).[C,C].[=A,,=A,] |!ped! x4!ped-up! | %388
 [=E,=E][K:treble] !^![Cc]2 .[B,B] |!ped! .[=A,=A].[G,G].[=G,=G].[F,F]!ped-up! | %390
[K:bass] (!>![=F,=F][=E,=E])[^D,^D][E,E] | G,.=E, .G,.B,, | .G,.=E,, .G,.B,, | =A,.=E, A,.C, | %394
 =A,.=E,, A,.C, | G,.=E, G,.B,, | G,.=E,, G,.B,, | =A,.=E, A,.C, | =A,.=E,, A,.C, | %399
 .[G,C^E].C, .[G,CE].G,, | .[G,CE].C,, .[G,CE].C, | .[A,C].C, .[A,CF].A,, | %402
 .[A,CF].C,, .[A,CF].C, |!ped! .[G,C^E].C, .[G,CE].G,,!ped-up! | .[G,CE].C,, .[G,CE].C, | %405
!ped! .[A,C].C, .[A,CF].A,,!ped-up! | .[A,CF].C,, .[A,CF].C, | G,[CEB] C,[CEB] | %408
[K:treble] .[G^B].[Ec] (!>![G=B]>c) |[K:bass] F,[CFA] C,[CFA] |[K:treble] .[^^G^B].[Ac] (!>!A>c) | %411
[K:bass] G,[CEB] C,[CEB] |[K:treble] .[G^B].[Ec] (!>!=B>c) |[K:bass] F,[CFA] C,[CFA] | %414
[K:treble] .[^^G^B].[Ac] (!>!A>c) |[K:bass] G,[CE=B] C,[CEB] |[K:treble] .[G^B].[Ec] (!>!=B>c) | %417
 .[g^b].[ec'] (!>!=b>c') | .[g^b].[ec'] (!>![=bd']>[gc']) | z4 | z4 | z4 | z4 | %423
[K:bass]!p! F,[CFA]C,[CFA] | F,[CF=A]C,[CFA] | G,[CEB]C,[CEB] | G,[CEB]C,[CEB] | F,[CFA]C,[CFA] | %428
 F,[CF=A]C,[CFA] | G,[CEB]C,[CEB] | G,[CEB]C,[CEB] | F,[CF^A]C,[CFA] | F,[CF=A]C,[CFA] | %433
 G,[CEB]C,[CEB] | z4 ||!pp!!ff! x4 | x4 | x4 | x4 | x4 | x4 | x4 | x4 | G,,/ x/ x x2 | x4 | x4 | %446
 x4 | x4 | x/ x/ x/ x/ x/ x/ x/ x/ | !stemless![xA,]/ x/ x/ x/ x/ x/ x/ x/ | %450
[K:treble] x/ x/ x/ x/ !stemless![xF]/ x/ x/ x/ | x/ x/ x/ x/ x/ x/ x/ x/ |[K:bass] x4 | x4 | x4 | %455
 x4 | x4 | x4 | =C,, z !fermata!z2 | %459
[K:G]!ped!{/[C,,C,]} !>![E,G,C]2!ped-up!!ped!{/[D,,D,]} !>![D,F,A,D]2!ped-up! | %460
!ped!{/[G,,,G,,]} !^![D,G,B,D]4!ped-up! |[K:G][K:treble]!ff! x z x z | %462
[K:bass] !wedge![G,,,G,,] z !fermata!z2 |] %463
V:4
 z2{/[C,,G,,]} .[C,,G,,] z | x4 | z2{/[G,,,G,,]} .[G,,,G,,] z | z2{/[C,,G,,]} .[C,,G,,] z | x4 | %5
 z2{/[G,,,G,,]} .[G,,,G,,] z | x4 | x4 | x4 | x4 ||[M:2/4] C,,4 | C,,4 | C,,4 | C,,4 | C,,4 | %15
 C,,4 | B,,,4 | B,,,4 | E,,4 | x2 G,,,2 | C,,4 | F,,,4 | C,,,4 | C,,3 x | x4 | x3 | x4 | x4 | x4 | %29
 x4 | [E,,E,] x/ ([G,B,E]/ [B,EG]2) | [E,,E,] x/ ([G,B,E]/ [B,EG]2) | %32
 [B,,,B,,] x/ ([F,B,D]/ [B,DF]2) | B,, x/ [F,B,D]/ !>!^B,, x/ [G,DG]/ | %34
 [C,,C,] x/ ([E,G,C]/ [G,CE]2) | [E,,E,] x/ ([G,CE]/ [CEG]2) | G,, x/ ([D,G,^B,]/ [G,B,D]2) | %37
 G,, x/ ([G,^B,D]/ [B,DG]2) | x4 | x4 | x4 | x4 | x4 | x4 | x4 | x4 | x2[K:treble] x2 | %47
[K:bass] x2[K:treble] x2 |[K:bass] x2[K:treble] x2 |[K:bass] x2[K:treble] x2 | %50
[K:bass] x2[K:treble] x2 |[K:bass] x2[K:treble] x2 |[K:bass] x2[K:treble] x2 | %53
[K:bass] x121/60[K:treble] x2 |[K:bass] x4 | x4 | x4 | x4 | x4 | x4 | x4 | x2[K:treble] x2 | x4 | %63
 x4 | x4 |[K:bass] z2{/[C,,G,,C,]} .[C,,G,,C,] z | x4 | z2{/[=D,,F,,B,,]} .[D,,F,,B,,] z | %68
 z2{/[C,,G,,C,]} .[C,,G,,C,] z | x4 | z2{/[=D,,F,,B,,]} .[D,,F,,B,,] z | x4 | x4 | x4 | x4 | x4 | %76
 x2{/C,,} x2 | F,,, x3 | x2 | x4 | x2 | x2 C,, x | !arpeggio!B,,, x3 | .B,,, x3 | x2 | x2 | x2 | %87
 x2 G,,2 | x4 | F,,, x3 | x2 | x4 | C,z/^B,,/ | x2 !>!^A,,!>!=A,, | !arpeggio!!>!G,, x3 | %95
 (63:16:1x4 x19/64[I:staff -1] (63:16:27^^F,/4G,/4=B,/4A,/4[I:staff +1] G,/4A,/4^B,/4C/4D/4E/4^F/4[I:staff -1]^^F/4G/4=B/4A/4[I:staff +1] G/4[K:treble]A/4^B/4c/4d/4e/4^f/4[I:staff -1] ^^f/4g/4=b/4a/4[I:staff +1] x4 | %96
 x4 |[K:bass] A,, x/[K:treble] ([CEA]/ [EAc]2) |[K:bass] C, x/[K:treble] ([CEA]/ [EAc]2) | %99
[K:bass] E,, x/[K:treble] ([B,EG]/ [EGB]2) | x2[K:bass] x2 | F,, x/ ([A,CF]/ [CFA]2) | %102
 A,, x/ ([A,CF]/ [CFA]2) | C, x/ ([G,CE]/ [CEG]2) | x4 | x4 | x4 | x4 | x4 | x4 | x4 | x4 | x4 | %113
 x4 | x4 | x4 | x4 | x4 | x4 | x4 | x4 | x4 | x4 | x4 | x3 (5:2:5(B,,,/C,,/)E,,/=D,,/C,,/ | x4 | %126
 x4 | x3 (6:2:6B,,,/A,,,/G,,,/B,,,/A,,,/G,,,/ | x4 | x4 | x4 | x4 |][K:treble] x4 | x4 | x4 | x4 | %136
 x4 | x4 | x4 | x4 | x4 |!8va(! x4!8va)! | x4 |!8va(! x4!8va)! | x4 |!8va(! x4!8va)! | x4 | %147
!8va(! x4!8va)! | x4 |!8va(! x4!8va)! | x4 |!8va(! x4!8va)! | x4 |!8va(! x4!8va)! | x4 | %155
!8va(! x4!8va)! | x[K:bass] x3 | .A .C .G .C | x4 | .A .C .F .C | x4 | .A .C .G .C | x4 | %163
 .A .C .F .C | x4 | x4 | x4 | x4 | x4 | x4 | x4 | x4 | x4 | C,2 x2 | x4 | C,2 x2 | x4 | C,2 x2 | %178
 x4 | C,2 x2 | x4 | x4 | x4 | x4 | x4 | x4 | x4 | x4 | x4 | x4 | x4 | x4 ||[K:F#][M:2/4] x4 | x4 | %194
 x4 | x4 | x4 | x4 | x4 | x4 | x4 | x4 | x4 | x4 | x4 | x4 | x4 | x4 | x4 | x4 | x4 | x4 | x4 | %213
 x4 | x4 | x4 | x4 |[K:treble] x4 |[K:bass] x4 |[K:treble] x4 |[K:bass] x4 |[K:treble] x4 | %222
[K:bass] x4 |[K:treble] x4 | x4 | x4 | x4 | x4 | x4 | x4 | x4 | x4 | x{/^B,} .C x{/^^D} .E | %233
 x{/^^G} .A x{/^^F} .^G | x4 | x4 | x{/^B,} .C x{/^^D} .E | x{/^^G} .A x{/^^F} .^G | x4 | x4 | %240
[K:bass] .G, x .C, x |[K:treble] x4 |[K:bass] .F, x .C, x |[K:treble] x2 F2 |[K:bass] .G, x .C, x | %245
[K:treble] x4 |[K:bass] .F, x .C, x |[K:treble] x4 |[K:bass] x4 | x4 | x4 | x4 | x4 | x4 | x4 | %255
 x4 | x4 | x4 | x4 | x4 | x4 | x4 | x4 | x4 | x4 | x4 | x4 | x4 | x4 | x4 | x4 | x4 | x4 | x4 | %274
 x4 | x4 | x4 | x4 | x4 | x4 | x4 | x4 | x4 | x4 | x4 | x4 | x4 | x4 | z .[E,G,] x .[G,C] | %289
 z .[CE].[CE] x | x4 | x4 | z .[E,G,] x .[G,C] | z .[CE].[CE] x | x4 | x4 | .[C,,C,] x .[G,,G,] x | %297
 x4 | x4 | x4 | [C,,C,] x [G,,G,] x | x4 | x4 | x4 | x4 |[K:treble] x4 |[K:bass] x4 | %307
[K:treble] x2 F2 |[K:bass] x4 |[K:treble] x4 |[K:bass] x4 |[K:treble] x2 F2 | x4 | x4 | x4 | x4 | %316
 x4 | x4 | x4 | x4 | x4 | x4 | x4 | x4 | x4 | x4 | x4 | x4 |[K:bass] x4 | x4 | x4 | x4 | x4 | x4 | %334
 x4 | x4 | x4 | x4 | x4 | x4 | x4 | x4 | x4 | x4 | x4 | x4 | x4 | x4 | x4 | x4 | x4 | x4 | x4 | %353
 x4 | x4 | x4 | x4 | x4 | x4 | x4 | x4 | x4 | x4 | x4 | x4 | x4 | x4 | x4 | x4 | x4 | x4 | x4 | %372
 x4 | x4 | x4 | z .[G,B,] z .[B,=E] | z .[=EG].[EG] x | x4 | x4 | z .[G,B,] z .[B,=E] | %380
 z .[=EG].[EG] x | x4 | x4 | .[=E,,=E,] x .[B,,B,] x | x[K:treble] x3 | x4 |[K:bass] x4 | %387
 .[=E,,=E,] x .[B,,B,] x | x[K:treble] x3 | x4 |[K:bass] x4 | .[G,=D=E] x .[G,DE] x | %392
 .[=D=E] x .[G,DE] x | .[C=E] x .[CE] x | .[C=E] x .[CE] x | .[G,=D=E] x .[G,DE] x | %396
 .[G,=D=E] x .[G,DE] x | .[C=E] x .[CE] x | .[C=E] x .[CE] x | x4 | x4 | x161/40 | x4 | x4 | x4 | %405
 x4 | x4 | x4 |[K:treble] x4 |[K:bass] x4 |[K:treble] x2 F2 |[K:bass] x4 |[K:treble] x2 G2 | %413
[K:bass] x4 |[K:treble] x2 F2 |[K:bass] x4 |[K:treble] x2 G2 | x2 g2 | x4 | x4 | x4 | x4 | x4 | %423
[K:bass] x4 | x4 | x4 | x4 | x4 | x4 | x4 | x4 | x4 | x4 | x4 | x4 || x4 | x4 | x4 | x4 | x4 | x4 | %441
 x4 | x4 | x4 | x4 | x4 | x4 | x4 | x4 | x4 |[K:treble] x4 | x4 |[K:bass] x4 | x4 | x4 | x4 | x4 | %457
 x4 | x4 |[K:G] x4 | x4 |[K:G][K:treble] !wedge![DGBd] x !wedge![dgbd'] x |[K:bass] x4 |] %463
V:5
 x4 | x4 | x4 | x4 | x4 | x4 |[K:bass] x4 | z2{/[C,=E,]} [C,E,] x | x3/16 z/30 x107/60{/x} x x | %9
 x4 ||[M:2/4] x4 | x4 | x4 | x4 | x4 | z2 x z | x4 |[K:treble] x4 | x4 | x4 | x4 | x4 | x4 | x4 | %24
 x4 | x3 | x4 | x4 | x4 | x4 | x4 | x4 | x4 | x4 | x4 | x4 | x4 | x4 | x4 | x4 | x4 | x4 | x4 | %43
 x4 | x3 z/ x/ | x/4 x/4 x/4 x/4 x/4 x/4 x/4 x/4 x/4 x/4 x/4 x/4 x/4 x/4 !trill)!x/4 x/4 | %46
!8va(! x4 | x4 | x4 | x4 | x4 | x4 | x3 z/ x/ | x241/60 | x4!8va)! | x4 | x4 | x3 .g | %58
 !arpeggio!^B2!8va(! x2 | x!8va)! x3 | x4 | x4 | x4 | x4 | x4/3!8va(! x7/5!8va)! x19/15 | x4 | x4 | %67
 x4 | x4 | x4 | x4 |[K:bass] x4 |{/G,} x4 | z2 x2 | x4 | x4 | x4 | x4 | x2 | x4 | x2 | x4 | %82
[K:treble] x4 | x4 | x2 | x2 | x2 | x4 | x4 | x4 | x2 | x4 | x2 | x4 | x4 | x49/12 | x4 | x4 | x4 | %99
 x4 | x4 | x4 | x4 | x4 | x4 | x4 | x4 | x4 | x4 | x4 | x4 | x4 | x4 | x4 | x4 | x4 | x4 | x4 | %118
 x4 | x2[K:bass] x2 | x4 | x4 | x4 | x4 | x4 | x4 | x4 | x4 | x4 | x4 | x4 | x4 |][K:treble] x4 | %133
 x4 | x4 | x4 | x4 | x4 | x4 | x4 | x4 | x4 | x4 | x4 | x4 | x4 | x4 | x4 | x4 | x4 | x4 | x4 | %152
 x4 | x4 | x4 | x4 | x4 | x4 | x4 | x4 | x4 | x4 | x4 | x4 | x4 | x4 | x4 | x4 | x4 | x4 | x4 | %171
 x4 | x4 | x4 | x4 | x4 | x4 | x4 | x4 | x4 | x4 | x4 | x4 | x4 | x4 | x4 | x4 | x4 | x4 | x4 | %190
 x4 | x4 ||[K:F#][M:2/4] x4 | x4 | x4 | x4 | x4 | x4 | x4 | x4 | x4 | x4 | x4 | x4 | x4 | x4 | x4 | %207
 x4 | x4 | x4 | x4 | x4 | x4 | x4 | x4 | x4 |!8va(! x4 | x4 | x4 | x4 | x4 | x4 | x4 | x4 | x4 | %225
 x4 | x4 | x4 | x4 | x4 | x4 | x4 | x4 | x4 | x4 | x4 | x4 | x4 | x4 | x4 | x4 | x4 | x4 | x4 | %244
 x4 | x4 | x4 | x4 | x!8va)! x3 | x4 | x4 | x4 | x4 | x4 |!8va(! x4 | x4 | x!8va)! x3 | x4 | x4 | %259
 x4 | x4 | x4 |!8va(! x4 | x4 | x!8va)! x3 | x4 |!8va(! x!8va)! x3 | x4 | x4 | x4 | x4 | x4 | %272
!8va(! x!8va)! x3 | x4 |!8va(! x2!8va)! x2 | x4 | x4 | x4 | x4 | x4 | x4 |!8va(! x4 | x4 | x4 | %284
 x4 | x4 | x!8va)! x3 | x4 | x2 z x | x4 | x4 | x4 | x2 z x | x4 | x4 | x4 |!8va(! x4 | x4 | x4 | %299
 x4 | x4 | x4 | x4 | x4 | x4 | x4 | x4 | x4 | x4 | x4 | x4 | x4 | x4 | x4 | x4 | x4 | x4 | x4 | %318
 x4 | x3!8va)! x |[K:bass] x4 | x4 | x4 | x4 | x4 | x4 | x4 | x4 |[K:treble] x4 | x4 | x4 | x4 | %332
 x4 | x4 | x4 | x4 |[K:bass] x4 | x4 | x4 | x4 | x4 | x4 | x4 | x4 |[K:treble] x4 | x4 | x4 | x4 | %348
!8va(! x4!8va)! | x4 | x4 | x4 |!8va(! x4 | x4 | x4 | x4 | x4 | x4!8va)! | x4 | x4 | x4 | x4 | x4 | %363
!8va(! x4 | x4 | x4 | x4 | x4 | x4 | x4 | x4 | x4 | x4 | x!8va)! x3 | x4 | x4 | x4 | x4 | x4 | x4 | %380
 x4 | x4 | x4 |!8va(! x4 | x4 | x4 | x4 | x4 | x4 | x4 | x4 | x4 | x4!8va)! | x161/40 |!8va(! x4 | %395
!8va(! x4!8va)! |!8va(! x4!8va)! | x3!8va(! x55/64 | x4 |!8va(! x4 | x11/4!8va)! x5/4 | x161/40 | %402
!8va(! x4 |!8va(! x4 | x11/4!8va)! x5/4 | x4 | x2/3!8va(! x10/3 | x4 | x4 | x4 | x4 | x4 | x4 | %413
 x4 | x4 | x4 | x4 | x4 | x4 | x4 | x4 | x4 | x4 | x!8va)! x3 | x4 | x4 | x4 | x4 | x4 | x4 | x4 | %431
 x4 | x4 | x4 | x4 ||[K:bass] x4 | x4 | x5/2[K:treble] x3/2 | x4 | x4 | x5/2[K:bass] x3/2 | x4 | %442
 x7/2[K:treble] x/ | x4 | x4 | x4 | x4 | x4 |!8va(! x4 | x4 | x4 | x4!8va)! | x4 | x4 | x4 | %455
 x5/2[K:bass] x3/2 | x4 | x4 | x4 |[K:G][K:treble] x4 | x4 |[K:G]!8va(! x3!8va)! x | %462
 x4!8va)!!8va)!!8va)! |] %463
V:6
 x4 | x4 | x4 | x4 | x4 | x4 |[K:bass] x4 | x z x2 | x4 | x4 ||[M:2/4] x4 | x4 | x4 | x4 | x4 | %15
 x4 | x4 |[K:treble] x4 | x4 | x4 | x4 | x4 | x4 | x4 | x4 | x3 | x4 | x4 | x4 | z2 x2 | x4 | x4 | %32
 x4 | x4 | x4 | x4 | x4 | x4 | x4 | x4 | x4 | x4 | x4 | x4 | %44
 x/4 x/4 x/4 x/4 x/4 x/4 x/4 x/4 x/4 x/4 x/4 x/4 x/4 x/4 x/4 x/4 | x4 |!8va(! x4 | x4 | x4 | x4 | %50
 x4 | x4 | x/4 x/4 x/4 x/4 x/4 x/4 x/4 x/4 x/4 x/4 x/4 x/4 x/4 x/4 x/4 x/4 | %53
 x/4 x/4 x/4 x/4 x/4 !trill)!x/4 x/4 x/4 x2 | x4!8va)! | x4 | x4 | x4 | x3/4!8va(! x13/4 | %59
 x!8va)! x3 | x4 | x4 | x4 | x4 | x4/3!8va(! x7/5!8va)! x19/15 | x4 | x4 | x4 | x4 | x4 | x4 | %71
[K:bass] x4 | x3 (6:2:6G,/A,/G,/B,/A,/"_Lento a capriccio"G,/ | x4 | x4 | x4 | x4 | x4 | x2 | x4 | %80
 x2 | x4 |[K:treble] x4 | x4 | x2 | x2 | x2 | x4 | x4 | x4 | x2 | x4 | x2 | x4 | x4 | x49/12 | x4 | %97
 x4 | x4 | x4 | x4 | x4 | x4 | x4 | x4 | x4 | x4 | x4 | x4 | x4 | x4 | x4 | x4 | x4 | x4 | x4 | %116
 x4 | x4 | x4 | x2[K:bass] x2 | x4 | x4 | x4 | x4 | x4 | x4 | x4 | x4 | x4 | x4 | x4 | x4 |] %132
[K:treble] x4 | x4 | x4 | x4 | x4 | x4 | x4 | x4 | x4 | x4 | x4 | x4 | x4 | x4 | x4 | x4 | x4 | %149
 x4 | x4 | x4 | x4 | x4 | x4 | x4 | x4 | x4 | x4 | x4 | x4 | x4 | x4 | x4 | x4 | x4 | x4 | x4 | %168
 x4 | x4 | x4 | x4 | x4 | x4 | x4 | x4 | x4 | x4 | x4 | x4 | x4 | x4 | x4 | x4 | x4 | x4 | x4 | %187
 x4 | x4 | x4 | x4 | x4 ||[K:F#][M:2/4] x4 | x4 | x4 | x4 | x4 | x4 | x4 | x4 | x4 | x4 | x4 | x4 | %204
 x4 | x4 | x4 | x4 | x4 | x4 | x4 | x4 | x4 | x4 | x4 | x4 |!8va(! x4 | x4 | x4 | x4 | x4 | x4 | %222
 x4 | x4 | x4 | x4 | x4 | x4 | x4 | x4 | x4 | x4 | x4 | x4 | x4 | x4 | x4 | x4 | x4 | x4 | x4 | %241
 x4 | x4 | x4 | x4 | x4 | x4 | x4 | x!8va)! x3 | x4 | x4 | x4 | x4 | x4 |!8va(! x4 | x4 | %256
 x!8va)! x3 | x4 | x4 | x4 | x4 | x4 |!8va(! x4 | x4 | x!8va)! x3 | x4 |!8va(! x!8va)! x3 | x4 | %268
 x4 | x4 | x4 | x4 |!8va(! x!8va)! x3 | x4 |!8va(! x2!8va)! x2 | x4 | x4 | x4 | x4 | x4 | x4 | %281
!8va(! x4 | x4 | x4 | x4 | x4 | x!8va)! x3 | x4 | x4 | x4 | x4 | x4 | x4 | x4 | x4 | x4 | %296
!8va(! x4 | x4 | x4 | x4 | x4 | x4 | x4 | x4 | x4 | x4 | x4 | x4 | x4 | x4 | x4 | x4 | x4 | x4 | %314
 x4 | x4 | x4 | x4 | x4 | x3!8va)! x |[K:bass] x4 | x4 | x4 | x4 | x4 | x4 | x4 | x4 | %328
[K:treble] x4 | x4 | x4 | x4 | x4 | x4 | x4 | x4 |[K:bass] x4 | x4 | x4 | x4 | x4 | x4 | x4 | x4 | %344
[K:treble] x4 | x4 | x4 | x4 |!8va(! x4!8va)! | x4 | x4 | x4 |!8va(! x4 | x4 | x4 | x4 | x4 | %357
 x4!8va)! | x4 | x4 | x4 | x4 | x4 |!8va(! x4 | x4 | x4 | x4 | x4 | x4 | x4 | x4 | x4 | x4 | %373
 x!8va)! x3 | x4 | x4 | x4 | x4 | x4 | x4 | x4 | x4 | x4 |!8va(! x4 | x4 | x4 | x4 | x4 | x4 | x4 | %390
 x4 | x4 | x4!8va)! | x161/40 |!8va(! x4 |!8va(! x4!8va)! |!8va(! x4!8va)! | x3!8va(! x55/64 | x4 | %399
!8va(! x4 | x11/4!8va)! x5/4 | x161/40 |!8va(! x4 |!8va(! x4 | x11/4!8va)! x5/4 | x4 | %406
 x2/3!8va(! x10/3 | x4 | x4 | x4 | x4 | x4 | x4 | x4 | x4 | x4 | x4 | x4 | x4 | x4 | x4 | x4 | x4 | %423
 x!8va)! x3 | x4 | x4 | x4 | x4 | x4 | x4 | x4 | x4 | x4 | x4 | x4 ||[K:bass] x4 | x4 | %437
 x5/2[K:treble] x3/2 | x4 | x4 | x5/2[K:bass] x3/2 | x4 | x7/2[K:treble] x/ | x4 | x4 | x4 | x4 | %447
 x4 |!8va(! x4 | x4 | x4 | x4!8va)! | x4 | x4 | x4 | x5/2[K:bass] x3/2 | x4 | x4 | x4 | %459
[K:G][K:treble] x4 | x4 |[K:G]!8va(! x3!8va)! x | x4!8va)!!8va)!!8va)! |] %463
V:7
 x4 | x4 | x4 | x4 | x4 | x4 | x4 | x4 | x4 | x4 ||[M:2/4] x4 | x4 | x4 | x4 | x4 | x4 | x4 | x4 | %18
 x4 | E,,3 x | x4 | x4 | x4 | x4 | x4 | x3 | x4 | x4 | x4 | x4 | x4 | x4 | x4 | x4 | x4 | x4 | x4 | %37
 x4 | x4 | x4 | x4 | x4 | x4 | x4 | x4 | x4 | x2[K:treble] x2 |[K:bass] x2[K:treble] x2 | %48
[K:bass] x2[K:treble] x2 |[K:bass] x2[K:treble] x2 |[K:bass] x2[K:treble] x2 | %51
[K:bass] x2[K:treble] x2 |[K:bass] x2[K:treble] x2 |[K:bass] x121/60[K:treble] x2 |[K:bass] x4 | %55
 x4 | x4 | x4 | x4 | x4 | x4 | x2[K:treble] x2 | x4 | x4 | x4 |[K:bass] x4 | x4 | x4 | x4 | x4 | %70
 x4 | x4 | x4 | x4 | x4 | x4 | x4 | x4 | x2 | x4 | x2 | x4 | x4 | x4 | x2 | x2 | x2 | x4 | x4 | %89
 x4 | x2 | x4 | x2 | x4 | x4 | x7/3[K:treble] x7/4 | x4 |[K:bass] x3/2[K:treble] x5/2 | %98
[K:bass] x3/2[K:treble] x5/2 |[K:bass] x3/2[K:treble] x5/2 | x2[K:bass] x2 | x4 | x4 | x4 | x4 | %105
 x4 | x4 | x4 | x4 | x4 | x4 | x4 | x4 | x4 | x4 | x4 | x4 | x4 | x4 | x4 | x4 | x4 | x4 | x4 | %124
 x4 | x4 | x4 | x4 | x4 | x4 | x4 | x4 |][K:treble] x4 | x4 | x4 | x4 | x4 | x4 | x4 | x4 | x4 | %141
!8va(! x4!8va)! | x4 |!8va(! x4!8va)! | x4 |!8va(! x4!8va)! | x4 |!8va(! x4!8va)! | x4 | %149
!8va(! x4!8va)! | x4 |!8va(! x4!8va)! | x4 |!8va(! x4!8va)! | x4 |!8va(! x4!8va)! | x[K:bass] x3 | %157
 x4 | x4 | x4 | x4 | x4 | x4 | x4 | x4 | x4 | x4 | x4 | x4 | x4 | x4 | x4 | x4 | x4 | x4 | x4 | %176
 x4 | x4 | x4 | x4 | x4 | x4 | x4 | x4 | x4 | x4 | x4 | x4 | x4 | x4 | x4 | x4 ||[K:F#][M:2/4] x4 | %193
 x4 | x4 | x4 | x4 | x4 | x4 | x4 | x4 | x4 | x4 | x4 | x4 | x4 | x4 | x4 | x4 | x4 | x4 | x4 | %212
 x4 | x4 | x4 | x4 | x4 |[K:treble] x4 |[K:bass] x4 |[K:treble] x4 |[K:bass] x4 |[K:treble] x4 | %222
[K:bass] x4 |[K:treble] x4 | x4 | x4 | x4 | x4 | x4 | x4 | x4 | x4 | x4 | x4 | x4 | x4 | x4 | x4 | %238
 x4 | x4 |[K:bass] x4 |[K:treble] x4 |[K:bass] x4 |[K:treble] x4 |[K:bass] x4 |[K:treble] x4 | %246
[K:bass] x4 |[K:treble] x4 |[K:bass] x4 | x4 | x4 | x4 | x4 | x4 | x4 | x4 | x4 | x4 | x4 | x4 | %260
 x4 | x4 | x4 | x4 | x4 | x4 | x4 | x4 | x4 | x4 | x4 | x4 | x4 | x4 | x4 | x4 | x4 | x4 | x4 | %279
 x4 | x4 | x4 | x4 | x4 | x4 | x4 | x4 | x4 | x2 z x | x4 | x4 | x4 | x2 z x | x4 | x4 | x4 | %296
 x !>![C,C] x !>![E,E] | x4 | x4 | x4 | x !>![C,C] x !>![E,E] | x4 | x4 | x4 | x4 |[K:treble] x4 | %306
[K:bass] x4 |[K:treble] x4 |[K:bass] x4 |[K:treble] x4 |[K:bass] x4 |[K:treble] x4 | x4 | x4 | x4 | %315
 x4 | x4 | x4 | x4 | x4 | x4 | x4 | x4 | x4 | x4 | x4 | x4 | x4 |[K:bass] x4 | x4 | x4 | x4 | x4 | %333
 x4 | x4 | x4 | x4 | x4 | x4 | x4 | x4 | x4 | x4 | x4 | x4 | x4 | x4 | x4 | x4 | x4 | x4 | x4 | %352
 x4 | x4 | x4 | x4 | x4 | x4 | x4 | x4 | x4 | x4 | x4 | x4 | x4 | x4 | x4 | x4 | x4 | x4 | x4 | %371
 x4 | x4 | x4 | x4 | x4 | x4 | x4 | x4 | x4 | x4 | x4 | x4 | x !>![=E,=E] x !>![G,G] | %384
 x[K:treble] x3 | x4 |[K:bass] x4 | x !>![=E,=E] x !>![G,G] | x[K:treble] x3 | x4 |[K:bass] x4 | %391
 x4 | x4 | x161/40 | x4 | x4 | x4 | x161/40 | x4 | x4 | x4 | x161/40 | x4 | x4 | x4 | x4 | x4 | %407
 x4 |[K:treble] x4 |[K:bass] x4 |[K:treble] x4 |[K:bass] x4 |[K:treble] x4 |[K:bass] x4 | %414
[K:treble] x4 |[K:bass] x4 |[K:treble] x4 | x4 | x4 | x4 | x4 | x4 | x4 |[K:bass] x4 | x4 | x4 | %426
 x4 | x4 | x4 | x4 | x4 | x4 | x4 | x4 | x4 || x4 | x4 | x4 | x4 | x4 | x4 | x4 | x4 | x4 | x4 | %445
 x4 | x4 | x4 | x4 | x4 |[K:treble] x4 | x4 |[K:bass] x4 | x4 | x4 | x4 | x4 | x4 | x4 |[K:G] x4 | %460
 x4 |[K:G][K:treble] x4 |[K:bass] x4 |] %463

